!!!!SEGMENT: pl-stab--5a--001-005_dankowski-adalbert--vespere-ex-c-de-confessoribus-laudate-pueri.krn
!!!cenid: 18xx:3503
!!!COM: Dankowski, Adalbert
!!!COM-rismid: pe30000793
!!!CDT: ~1760-~1836
!!!CNT: Polish
!!!OPR: Vespere ex C de Confessoribus
!!!OTL: Laudate pueri
!!!OMV: 005
!!!PDT:
!!!AGN: Sacred; Vespers
!!!SMS-siglum: PL-STAb
!!!SMS-shelfmark: 5a
!!!SMS-shelfwork: 001-005 M
!!!SMS-variant:
!!!SMS-altvar:
!!!NIFC-rismid: 301050557
!!!URL-scan: https://repozytorium.nifc.pl/islandora/object/pl-stab%3A1317/datastream/PDF/view
!!!ONB-nifc: UWAGA: części Nieszporów: 1. Domine ad adjuvandum, 2. Dixit Dominus, 3. Confitebor, 4. Beatus vir, 5. Laudate pueri, 6. Laudate Dominum, 7. In Exitu, 8. Magnificat, 9. Quia fecit, 10. Fecit potentiam, 11. Suscepit Israel, 12. Gloria patri
!!!AIN: 1 alto 1 bass 2 cor 1 organ 1 soprn 1 tenor 2 violn
!!!key: b
**kern	**fba	**dynam	**kern	**dynam	**kern	**dynam	**kern	**text	**kern	**text	**kern	**text	**kern	**text	**kern	**kern
*part9	*part9	*part9	*part8	*part8	*part7	*part7	*part6	*part6	*part5	*part5	*part4	*part4	*part3	*part3	*part2	*part1
*staff9	*	*	*staff8	*	*staff7	*	*staff6	*staff6	*staff5	*staff5	*staff4	*staff4	*staff3	*staff3	*staff2	*staff1
*	*	*	*group3	*	*group3	*	*group2	*	*group2	*	*group2	*	*group2	*	*group1	*group1
*I"Organo	*	*	*I"Violino Secondo	*	*I"Violino Primo	*	*I"Baſso.	*	*I"Tenore.	*	*I"Alto.	*	*I"Canto	*	*I"Cornu Secondo Ex C.	*I"Cornu Primo ex C.
*I'org	*	*	*I'vl 2	*	*I'vl 1	*	*I'B	*	*I'T	*	*I'A	*	*I'S	*	*I'cor 2 in C	*I'cor 1 in C
*Iorgan	*	*	*Ivioln	*	*Ivioln	*	*Ibass	*	*Itenor	*	*Ialto	*	*Isoprn	*	*Icor	*Icor
*ICklav	*	*	*ICstr	*	*ICstr	*	*ICvox	*	*ICvox	*	*ICvox	*	*ICvox	*	*ICbras	*ICbras
*IGcont	*	*	*IGacmp	*	*IGacmp	*	*IGcoro	*	*IGcoro	*	*IGcoro	*	*IGcoro	*	*	*
*clefF4	*	*	*clefG2	*	*clefG2	*	*clefF4	*	*clefC4	*	*clefC3	*	*clefC1	*	*	*
*k[]	*	*	*k[f#c#]	*	*k[f#c#]	*	*k[f#c#]	*	*k[c#f#]	*	*k[f#c#]	*	*k[f#c#]	*	*	*
*b:	*	*	*b:	*	*b:	*	*b:	*	*b:	*	*b:	*	*b:	*	*	*
*M2/4	*	*	*M2/4	*	*M2/4	*	*M2/4	*	*M2/4	*	*M2/4	*	*M2/4	*	*	*
!LO:TX:t=P:problem=przy kluczu błędnie brak znaków	!	!	!	!	!	!	!	!	!	!	!	!	!	!	!	!
!LO:TX:a:i:t=Solo	!	!	!	!	!	!	!LO:TX:a:i:t=Solo	!	!LO:TX:a:i:t=Solo	!	!	!	!	!	!	!
!LO:TX:a:B:t=Allegro	!	!LO:DY:a	!LO:TX:a:B:t=Allegretto	!LO:DY:a	!LO:TX:a:B:t=Allegretto	!LO:DY:a	!LO:TX:a:B:t=allegretto	!	!LO:TX:a:B:t=allegretto	!	!LO:TX:a:B:t=llegretto	!	!LO:TX:a:B:t=llegretto.	!	!LO:TX:a:t=Laudte pue\nri Tacet	!LO:TX:a:t=Laudate Pueri Tacet
8r	.	p	8r	p	8f#/	p	8F#\	Lau-	8r	.	8r	.	8r	.	8ryy	8ryy
=1	=1	=1	=1	=1	=1	=1	=1	=1	=1	=1	=1	=1	=1	=1	=1	=1
!	!	!	!	!	!	!	!	!	!	!	!LO:TX:a:t=7	!	!LO:TX:a:t=7	!	!	!
8B\	.	.	16B/LL	.	16d/LL	.	4B\	-da-	4r	.	2r	.	0r	.	2ryy	2ryy
.	.	.	16d/	.	16f#/	.	.	.	.	.	.	.	.	.	.	.
8r	.	.	16B/	.	16d/	.	.	.	.	.	.	.	.	.	.	.
.	.	.	16d/JJ	.	16f#/JJ	.	.	.	.	.	.	.	.	.	.	.
!LO:SIC:v:s=8F#\	!	!	!	!	!	!	!	!	!	!	!	!	!	!	!	!
8F\	#	.	16c#/LL	.	16e/LL	.	4c#\	-te	8r	.	.	.	.	.	.	.
.	.	.	16e/	.	16f#/	.	.	.	.	.	.	.	.	.	.	.
8r	.	.	16c#/	.	16e/	.	.	.	8F#/	Lau-	.	.	.	.	.	.
.	.	.	16e/JJ	.	16f#/JJ	.	.	.	.	.	.	.	.	.	.	.
=2	=2	=2	=2	=2	=2	=2	=2	=2	=2	=2	=2	=2	=2	=2	=2	=2
*	*	*	*tremolo	*	*	*	*	*	*	*	*	*	*	*	*	*
8BB/	.	.	16B/LL	.	16d/LL	.	4d\	pu-	4B\	-da-	2r	.	.	.	2ryy	2ryy
.	.	.	16d/	.	16f#/	.	.	.	.	.	.	.	.	.	.	.
8r	.	.	16B/	.	16d/	.	.	.	.	.	.	.	.	.	.	.
.	.	.	16d/JJ	.	16f#/JJ	.	.	.	.	.	.	.	.	.	.	.
*	*	*	*Xtremolo	*	*	*	*	*	*	*	*	*	*	*	*	*
!LO:SIC:v:s=8F#\	!	!	!	!	!	!	!	!	!	!	!	!	!	!	!	!
8F\	#	.	16c#/LL	.	16e/LL	.	16e\LL	.	4c#\	-te	.	.	.	.	.	.
.	.	.	16e/	.	16f#/	.	16c#\JJ	.	.	.	.	.	.	.	.	.
8r	.	.	16c#/	.	16e/	.	16B\LL	-e-	.	.	.	.	.	.	.	.
.	.	.	16e/JJ	.	16f#/JJ	.	16A#X\JJ	.	.	.	.	.	.	.	.	.
=3	=3	=3	=3	=3	=3	=3	=3	=3	=3	=3	=3	=3	=3	=3	=3	=3
*	*	*	*tremolo	*	*	*	*	*	*	*	*	*	*	*	*	*
8B\	.	.	16B/LL	.	16d/LL	.	8B\	-ri	4d\	pue-	2r	.	.	.	2ryy	2ryy
.	.	.	16d/	.	16f#/	.	.	.	.	.	.	.	.	.	.	.
8r	.	.	16B/	.	16d/	.	8B\	Lau-	.	.	.	.	.	.	.	.
.	.	.	16d/JJ	.	16f#/JJ	.	.	.	.	.	.	.	.	.	.	.
!LO:SIC:v:s=8F#\	!	!	!	!	!	!	!	!	!	!	!	!	!	!	!	!
8F\	#	.	16c#/LL	.	16e/LL	.	8c#\	-da-	16e\LL	.	.	.	.	.	.	.
.	.	.	16e/	.	16f#/	.	.	.	16c#\JJ	.	.	.	.	.	.	.
8r	.	.	16c#/	.	16e/	.	8c#\	-te	16B\LL	-ri	.	.	.	.	.	.
.	.	.	16e/JJ	.	16f#/JJ	.	.	.	16A#X\JJ	.	.	.	.	.	.	.
!	!	!	!	!	!LO:LB:g=original	!	!LO:LB:g=original	!	!	!	!	!	!	!	!	!
=4	=4	=4	=4	=4	=4	=4	=4	=4	=4	=4	=4	=4	=4	=4	=4	=4
8BB/	.	.	16B/LL	.	16d/LL	.	4d\	Do-	4B\	Do-	2r	.	.	.	2ryy	2ryy
.	.	.	16d/	.	16f#/	.	.	.	.	.	.	.	.	.	.	.
8r	.	.	16B/	.	16d/	.	.	.	.	.	.	.	.	.	.	.
.	.	.	16d/JJ	.	16f#/JJ	.	.	.	.	.	.	.	.	.	.	.
!LO:SIC:v:s=8F#\	!	!	!	!	!	!	!	!	!	!	!	!	!	!	!	!
8F\	#	.	16c#/LL	.	16e/LL	.	16e\LL	.	4c#\	-mi-	.	.	.	.	.	.
.	.	.	16e/	.	16f#/	.	16c#\JJ	.	.	.	.	.	.	.	.	.
8r	.	.	16c#/	.	16e/	.	16B\LL	-mi-	.	.	.	.	.	.	.	.
.	.	.	16e/JJ	.	16f#/JJ	.	16A#X\JJ	.	.	.	.	.	.	.	.	.
*	*	*	*Xtremolo	*	*	*	*	*	*	*	*	*	*	*	*	*
=5	=5	=5	=5	=5	=5	=5	=5	=5	=5	=5	=5	=5	=5	=5	=5	=5
4B\	.	.	4d/	.	4d/	.	8B\	-num	8d\	-num	2r	.	1r	.	2ryy	2ryy
.	.	.	.	.	.	.	8d\	lau-	8f#\	Lau-	.	.	.	.	.	.
8r	.	.	8r	.	8r	.	8d\	-da-	8f#\	-da-	.	.	.	.	.	.
!	!	!	!	!	!	!	!	!	!LO:LB:g=original	!	!	!	!	!	!	!
8BB/	.	.	8d/	.	8b\	.	16c#\LL	-te	16e\LL	-te	.	.	.	.	.	.
.	.	.	.	.	.	.	16B\JJ	.	16d\JJ	.	.	.	.	.	.	.
=6	=6	=6	=6	=6	=6	=6	=6	=6	=6	=6	=6	=6	=6	=6	=6	=6
!LO:SIC:v:s=8F#\L	!	!	!	!	!	!	!	!	!	!	!	!	!	!	!	!
8F\L	#	.	8f#/L	.	8a#X\L	.	8.A#X\	pu-	8.c#\L	no-	2r	.	.	.	2ryy	2ryy
8E\	.	.	8f#/	.	8a#\	.	.	.	.	.	.	.	.	.	.	.
!	!	!	!	!	!	!	!LO:SIC:v:s=32G#\LLL	!	!	!	!	!	!	!	!	!
.	.	.	.	.	.	.	32G\LLL	-e-	32B\LL	.	.	.	.	.	.	.
.	.	.	.	.	.	.	32A#\JJJ	.	32c#\JJJ	.	.	.	.	.	.	.
8D\	6	.	8f#/	.	8b\	.	8B\	-ri	8d\	-men	.	.	.	.	.	.
!LO:SIC:v:s=8C#\J	!	!	!	!	!	!	!	!	!	!	!	!	!	!	!	!
8C\J	.	.	8f#/J	.	8b\J	.	8B\	lau-	8d\	lau-	.	.	.	.	.	.
!LO:LB:g=original	!	!	!LO:LB:g=original	!	!	!	!	!	!	!	!	!	!	!	!	!
=7	=7	=7	=7	=7	=7	=7	=7	=7	=7	=7	=7	=7	=7	=7	=7	=7
*	*	*	*tremolo	*	*	*	*	*	*	*	*	*	*	*	*	*
8E\L	6_	.	8g/L	.	8cc#\L	.	8.c#\	-da-	8.e\	-da-	2r	.	2r	.	2ryy	2ryy
8E\	.	.	8g/	.	8cc#\	.	.	.	.	.	.	.	.	.	.	.
.	.	.	.	.	.	.	16d\	-te	16f#\	-te	.	.	.	.	.	.
8E#X\	5	.	8g/	.	8b\	.	16c#\LL	no-	16e\LL	no-	.	.	.	.	.	.
.	.	.	.	.	.	.	16B\JJ	.	16d\JJ	.	.	.	.	.	.	.
8E#\J	.	.	8g/J	.	8b\J	.	16A#X\LL	-men	16c#\LL	-men	.	.	.	.	.	.
.	.	.	.	.	.	.	16B\JJ	.	16d\JJ	.	.	.	.	.	.	.
*	*	*	*Xtremolo	*	*	*	*	*	*	*	*	*	*	*	*	*
!	!	!	!	!	!	!	!LO:LB:g=original	!	!	!	!	!	!	!	!	!
=8	=8	=8	=8	=8	=8	=8	=8	=8	=8	=8	=8	=8	=8	=8	=8	=8
!LO:SIC:v:s=8F#\L	!	!	!	!	!	!	!	!	!	!	!	!	!	!	!	!
!LO:TX:t=P:problem=mixed beam	!	!	!	!	!	!	!	!	!	!	!LO:TX:t=P:problem=brak taktu nr 9	!	!LO:TX:a:i:t=Solo:rj	!	!	!
8F\L	6 4	.	8.d/L	.	8.b\L	.	8.B\	Do-	8.d\	Do-	2ryy	.	4r	.	2ryy	2ryy
!LO:SIC:v:s=8FF#/	!	!	!	!	!	!	!	!	!	!	!	!	!	!	!	!
8FF/	.	.	.	.	.	.	.	.	.	.	.	.	.	.	.	.
.	.	.	32e/L	.	32cc#\LL	.	16B\	-mi-	16d\	-mi-	.	.	.	.	.	.
.	.	.	32d/JJ	.	32b\JJJ	.	.	.	.	.	.	.	.	.	.	.
!LO:SIC:v:s=8F#\L	!	!	!	!	!	!	!	!	!	!	!	!	!	!	!	!
8F\J	5 #	.	8c#/	.	8a#X/L	.	8A#X\	-ni	8c#\	-ni	.	.	8r	.	.	.
8r	.	.	8r	.	8f#/J	.	8r	.	8r	.	.	.	8cc#\	Sit	.	.
=9	=9	=9	=9	=9	=9	=9	=9	=9	=9	=9	=9	=9	=9	=9	=9	=9
!	!	!	!	!	!	!	!	!	!	!	!LO:TX:a:i:t=Solo	!	!	!	!	!
4B\	.	.	8d/L	.	4.ff#\	.	0r	.	0r	.	4r	.	4.ff#\	No-	2ryy	2ryy
.	.	.	16e/L	.	.	.	.	.	.	.	.	.	.	.	.	.
.	.	.	16d/JJ	.	.	.	.	.	.	.	.	.	.	.	.	.
4A#X\	6 5	.	8c#/L	.	.	.	.	.	.	.	8r	.	.	.	.	.
.	.	.	8c#/J	.	8ee\	.	.	.	.	.	8c#\	Sit	8ee\	-men	.	.
=10	=10	=10	=10	=10	=10	=10	=10	=10	=10	=10	=10	=10	=10	=10	=10	=10
4B\	.	.	4.f#/	.	8dd\L	.	.	.	.	.	4.f#\	No-	8dd\	Do-	2ryy	2ryy
.	.	.	.	.	16ee\L	.	.	.	.	.	.	.	16ee\LL	-mi-	.	.
.	.	.	.	.	16dd\JJ	.	.	.	.	.	.	.	16dd\JJ	.	.	.
4A#X\	6 5	.	.	.	8cc#\L	.	.	.	.	.	.	.	8cc#\	-ni	.	.
.	.	.	8e/	.	8cc#\J	.	.	.	.	.	8e\	-men	8cc#\	Sit	.	.
=11	=11	=11	=11	=11	=11	=11	=11	=11	=11	=11	=11	=11	=11	=11	=11	=11
4B\	.	.	8d/L	.	4.ff#\	.	.	.	.	.	8d\	Do-	4.ff#\	Be-	2ryy	2ryy
.	.	.	16e/L	.	.	.	.	.	.	.	16e\LL	-mi-	.	.	.	.
.	.	.	16d/JJ	.	.	.	.	.	.	.	16d\JJ	.	.	.	.	.
4A#X\	6 5	.	8c#/L	.	.	.	.	.	.	.	8c#\	-ni	.	.	.	.
.	.	.	8c#/J	.	8ee\	.	.	.	.	.	8c#\	Sit	8ee\	-ne-	.	.
!	!	!	!	!	!	!	!	!	!	!	!	!	!LO:LB:g=original	!	!	!
=12	=12	=12	=12	=12	=12	=12	=12	=12	=12	=12	=12	=12	=12	=12	=12	=12
4B\	.	.	4.f#/	.	8dd\L	.	.	.	.	.	8f#\	Be-	4dd\	-dic-	2ryy	2ryy
.	.	.	.	.	16ee\L	.	.	.	.	.	8f#\	-ne-	.	.	.	.
.	.	.	.	.	16dd\JJ	.	.	.	.	.	.	.	.	.	.	.
4A#X\	6 5	.	.	.	8cc#\L	.	.	.	.	.	8f#\L	-dic-	4cc#\	.	.	.
.	.	.	8e/	.	8cc#\J	.	.	.	.	.	8e\J	.	.	.	.	.
!	!	!	!	!	!LO:LB:g=original	!	!	!	!	!	!LO:LB:g=original	!	!	!	!	!
=13	=13	=13	=13	=13	=13	=13	=13	=13	=13	=13	=13	=13	=13	=13	=13	=13
!LO:TX:t=P:problem=mixed beam	!	!	!	!	!	!	!	!	!	!	!	!	!	!	!	!
8B\L	.	.	8d/	.	8b\	.	0r	.	0r	.	8d\	-tum	8b\	-tum	2ryy	2ryy
8BB/J	.	.	8r	.	8r	.	.	.	.	.	8r	.	8r	.	.	.
4r	.	.	16b\LL	.	16dd\LL	.	.	.	.	.	16b\LL	ex	16dd\LL	ex	.	.
.	.	.	16a#X\	.	16cc#\	.	.	.	.	.	16a#X\JJ	.	16cc#\JJ	.	.	.
.	.	.	16b\	.	16dd\	.	.	.	.	.	16b\LL	choc	16dd\LL	choc	.	.
.	.	.	16cc#\JJ	.	16ee\JJ	.	.	.	.	.	16cc#\JJ	.	16ee\JJ	.	.	.
=14	=14	=14	=14	=14	=14	=14	=14	=14	=14	=14	=14	=14	=14	=14	=14	=14
8r	.	.	4.dd\	.	4.ff#\	.	.	.	.	.	4.dd\	nunc	4.ff#\	nunc	2ryy	2ryy
!LO:TX:t=P:problem=mixed beam	!	!	!	!	!	!	!	!	!	!	!	!	!	!	!	!
8BB/L	.	.	.	.	.	.	.	.	.	.	.	.	.	.	.	.
8B\	.	.	.	.	.	.	.	.	.	.	.	.	.	.	.	.
8BB/J	.	.	16cc#\LL	.	16ee\LL	.	.	.	.	.	16cc#\LL	(et)	16ee\LL	(et)	.	.
.	.	.	16b\JJ	.	16dd\JJ	.	.	.	.	.	16b\JJ	.	16dd\JJ	.	.	.
=15	=15	=15	=15	=15	=15	=15	=15	=15	=15	=15	=15	=15	=15	=15	=15	=15
!LO:SIC:v:s=8F#\L	!	!	!	!	!	!	!	!	!	!	!	!	!	!	!	!
!LO:TX:t=P:problem=mixed beam	!	!	!	!	!	!	!	!	!	!	!	!	!	!	!	!
8F\L	.	.	8.a#X\L	.	8.cc#\L	.	.	.	.	.	8.a#X\L	us-	8.cc#\L	us-	2ryy	2ryy
!LO:SIC:v:s=8FF#/	!	!	!	!	!	!	!	!	!	!	!	!	!	!	!	!
8FF/	.	.	.	.	.	.	.	.	.	.	.	.	.	.	.	.
.	.	.	32b\LL	.	32dd\LL	.	.	.	.	.	32b\LL	.	32dd\LL	.	.	.
.	.	.	32cc#\JJJ	.	32ee\JJJ	.	.	.	.	.	32cc#\JJJ	.	32ee\JJJ	.	.	.
8BB/	3_	.	8b\L	.	8dd\L	.	.	.	.	.	8b\	-que	8dd\	-que	.	.
!	!	!	!LO:TX:b:i:t=Verte Subitto	!	!	!	!	!	!	!	!	!	!	!	!	!
8BB/J	.	.	8dd\J	.	8ff#\J	.	.	.	.	.	8dd\	.	8ff#\	.	.	.
!	!	!	!LO:PB:g=original	!	!	!	!	!	!	!	!	!	!	!	!	!
=16	=16	=16	=16	=16	=16	=16	=16	=16	=16	=16	=16	=16	=16	=16	=16	=16
!LO:TX:t=P:problem=mixed beam	!	!	!	!	!	!	!	!	!	!	!	!	!	!	!	!
8E\L	6_	.	8.ee\L	.	8.gg\L	.	.	.	.	.	8.ee\	.	8.gg\	.	2ryy	2ryy
8E\	.	.	.	.	.	.	.	.	.	.	.	.	.	.	.	.
.	.	.	16cc#\Jk	.	16ee\Jk	.	.	.	.	.	16cc#\	in	16ee\	in	.	.
!LO:SIC:v:s=8F#\	!	!	!	!	!	!	!	!	!	!	!	!	!	!	!	!
8F\	6 4	.	16cc#\LL	.	16ee\LL	.	.	.	.	.	16cc#\LL	Se-	16ee\LL	Se-	.	.
.	.	.	16b\	.	16dd\	.	.	.	.	.	16b\JJ	.	16dd\JJ	.	.	.
!LO:SIC:v:s=8FF#/J	!	!	!	!	!	!	!	!	!	!	!	!	!	!	!	!
8FF/J	5 #	.	16b\	.	16dd\	.	.	.	.	.	16b\LL	-cu-	16dd\LL	-cu-	.	.
.	.	.	16a#X\JJ	.	16cc#\JJ	.	.	.	.	.	16a#X\JJ	.	16cc#\JJ	.	.	.
!	!	!	!	!	!	!	!	!	!	!	!LO:LB:g=original	!	!	!	!	!
=17	=17	=17	=17	=17	=17	=17	=17	=17	=17	=17	=17	=17	=17	=17	=17	=17
!LO:TX:t=P:problem=mixed beam	!	!	!	!	!	!	!	!	!	!	!	!	!	!	!	!
8BB/L	.	.	8b\L	.	8dd\L	.	4r	.	2r	.	4b\	-lum	4dd\	-lum	2ryy	2ryy
8B\	.	.	16b\L	.	16dd\L	.	.	.	.	.	.	.	.	.	.	.
.	.	.	16dd\JJ	.	16ff#\JJ	.	.	.	.	.	.	.	.	.	.	.
8BB/J	.	.	8b\	.	8dd\	.	8r	.	.	.	4r	.	4r	.	.	.
8r	.	.	8r	.	8r	.	8F#\	Lau-	.	.	.	.	.	.	.	.
!LO:PB:g=original	!	!	!	!	!	!	!	!	!LO:LB:g=original	!	!	!	!LO:LB:g=original	!	!	!
=18	=18	=18	=18	=18	=18	=18	=18	=18	=18	=18	=18	=18	=18	=18	=18	=18
!	!	!	!	!	!	!	!	!	!	!	!LO:TX:a:t=3	!	!LO:TX:a:t=3	!	!	!
8B\	.	.	16B/LL	.	16d/LL	.	4B\	-da-	4r	.	1r	.	1r	.	2ryy	2ryy
.	.	.	16d/	.	16f#/	.	.	.	.	.	.	.	.	.	.	.
8r	.	.	16B/	.	16d/	.	.	.	.	.	.	.	.	.	.	.
.	.	.	16d/JJ	.	16f#/JJ	.	.	.	.	.	.	.	.	.	.	.
!LO:SIC:v:s=8F#\	!	!	!	!	!	!	!	!	!	!	!	!	!	!	!	!
8F\	#	.	16c#/LL	.	16e/LL	.	4c#\	-te	8r	.	.	.	.	.	.	.
.	.	.	16e/	.	16f#/	.	.	.	.	.	.	.	.	.	.	.
8r	.	.	16c#/	.	16e/	.	.	.	8F#/	lau-	.	.	.	.	.	.
.	.	.	16e/JJ	.	16f#/JJ	.	.	.	.	.	.	.	.	.	.	.
=19	=19	=19	=19	=19	=19	=19	=19	=19	=19	=19	=19	=19	=19	=19	=19	=19
8BB/	.	.	16B/LL	.	16d/LL	.	4d\	pu-	4B\	-da-	.	.	.	.	2ryy	2ryy
.	.	.	16d/	.	16f#/	.	.	.	.	.	.	.	.	.	.	.
8r	.	.	16B/	.	16d/	.	.	.	.	.	.	.	.	.	.	.
.	.	.	16d/JJ	.	16f#/JJ	.	.	.	.	.	.	.	.	.	.	.
!LO:SIC:v:s=8F#\	!	!	!	!	!LO:LB:g=original	!	!	!	!	!	!	!	!	!	!	!
8F\	#	.	16c#/LL	.	16e/LL	.	16e\LL	-e-	4c#\	-te	.	.	.	.	.	.
.	.	.	16e/	.	16f#/	.	16c#\JJ	.	.	.	.	.	.	.	.	.
8r	.	.	16c#/	.	16e/	.	16B\LL	-ri	.	.	.	.	.	.	.	.
.	.	.	16e/JJ	.	16f#/JJ	.	16A#X\JJ	.	.	.	.	.	.	.	.	.
=20	=20	=20	=20	=20	=20	=20	=20	=20	=20	=20	=20	=20	=20	=20	=20	=20
8B\L	.	.	16B/LL	.	16d/LL	.	8B\	no-	8.d\	no-	2r	.	2r	.	2ryy	2ryy
.	.	.	16d/	.	16f#/	.	.	.	.	.	.	.	.	.	.	.
8G\	.	.	16B/	.	16d/	.	8G\	-men	.	.	.	.	.	.	.	.
.	.	.	16d/JJ	.	16g/JJ	.	.	.	32c#\LLL	-men	.	.	.	.	.	.
.	.	.	.	.	.	.	.	.	32d\JJJ	.	.	.	.	.	.	.
8E\	6 5	.	16c#/LL	.	16e/LL	.	8E\	Do-	16e\LL	Do-	.	.	.	.	.	.
.	.	.	16e/	.	16g/	.	.	.	16c#\JJ	.	.	.	.	.	.	.
!LO:SIC:v:s=8F#\J	!	!	!	!	!	!	!	!	!	!	!	!	!	!	!	!
8F\J	#	.	16d/	.	16f#/	.	8F#\	-mi-	16B\LL	-mi-	.	.	.	.	.	.
.	.	.	16c#/JJ	.	16e/JJ	.	.	.	16A\JJ	.	.	.	.	.	.	.
!	!	!	!	!	!	!	!LO:LB:g=original	!	!	!	!	!	!	!	!	!
=21	=21	=21	=21	=21	=21	=21	=21	=21	=21	=21	=21	=21	=21	=21	=21	=21
!	!	!	!LO:TX:t=P:problem=mixed beam	!	!LO:TX:t=P:problem=mixed beam	!	!	!	!	!	!	!	!	!	!	!
4BB/	.	.	8B/L	.	8d/L	.	4BB/	-ni	4B\	-ni	8r	.	8r	.	2ryy	2ryy
.	.	.	8b\J	.	8dd\J	.	.	.	.	.	8b\	a	8dd\	a	.	.
4r	.	.	8dd\L	.	8ff#\L	.	4r	.	4r	.	8dd\	So-	8ff#\	So-	.	.
.	.	.	16cc#\L	.	16ee\L	.	.	.	.	.	16cc#\LL	-lis	16ee\LL	-lis	.	.
.	.	.	16b\JJ	.	16dd\JJ	.	.	.	.	.	16b\JJ	.	16dd\JJ	.	.	.
=22	=22	=22	=22	=22	=22	=22	=22	=22	=22	=22	=22	=22	=22	=22	=22	=22
*	*	*	*	*	*2\right	*	*	*	*	*	*2\right	*	*2\right	*	*	*
!	!	!	!	!	!	!	!LO:TX:a:t=8	!	!	!	!	!	!	!	!	!
8r	.	.	2a#X/	.	2cc#\	.	0r	.	0r	.	2a#X\	or-	2cc#\	or-	2ryy	2ryy
8G\L	4 2	.	.	.	.	.	.	.	.	.	.	.	.	.	.	.
!LO:SIC:v:s=8F#\	!	!	!	!	!	!	!	!	!	!	!	!	!	!	!	!
8F\	#_	.	.	.	.	.	.	.	.	.	.	.	.	.	.	.
8E\J	.	.	.	.	.	.	.	.	.	.	.	.	.	.	.	.
=23	=23	=23	=23	=23	=23	=23	=23	=23	=23	=23	=23	=23	=23	=23	=23	=23
8D/L	6	.	8b\L	.	8.dd\L	.	.	.	.	.	8b\	-tu	8dd\	-tu	2ryy	2ryy
!LO:SIC:v:s=8C#/J	!	!	!	!	!	!	!	!	!	!	!	!	!	!	!	!
8C/J	.	.	8cc#\J	.	.	.	.	.	.	.	8cc#\	a	8ee\	a	.	.
.	.	.	.	.	16ee\Jk	.	.	.	.	.	.	.	.	.	.	.
4BB/	.	.	8dd\L	.	8ff#\L	.	.	.	.	.	8dd\	So-	8ff#\	So-	.	.
.	.	.	16cc#\L	.	16ee\L	.	.	.	.	.	16cc#\LL	-lis	16ee\LL	-lis	.	.
.	.	.	16b\JJ	.	16dd\JJ	.	.	.	.	.	16b\JJ	.	16dd\JJ	.	.	.
!	!	!	!LO:LB:g=original	!	!	!	!	!	!	!	!	!	!	!	!	!
=24	=24	=24	=24	=24	=24	=24	=24	=24	=24	=24	=24	=24	=24	=24	=24	=24
8r	.	.	2a#X/	.	2cc#\	.	.	.	.	.	2a#X\	or-	2cc#\	or-	2ryy	2ryy
8G\L	4 2	.	.	.	.	.	.	.	.	.	.	.	.	.	.	.
!LO:SIC:v:s=8F#\	!	!	!	!	!	!	!	!	!	!	!	!	!	!	!	!
8F\	#_	.	.	.	.	.	.	.	.	.	.	.	.	.	.	.
8E\J	.	.	.	.	.	.	.	.	.	.	.	.	.	.	.	.
!	!	!	!	!	!	!	!	!	!	!	!LO:LB:g=original	!	!	!	!	!
=25	=25	=25	=25	=25	=25	=25	=25	=25	=25	=25	=25	=25	=25	=25	=25	=25
8D/L	6	.	8b\L	.	8dd\L	.	.	.	.	.	8b\L	.	8dd\L	.	2ryy	2ryy
!LO:SIC:v:s=8C#/J	!	!	!	!	!	!	!	!	!	!	!	!	!	!	!	!
8C/J	.	.	8cc#\J	.	8ee\J	.	.	.	.	.	8cc#\J	.	8ee\J	.	.	.
4BB/	.	.	8dd\L	.	8ff#\L	.	.	.	.	.	8dd\L	.	8ff#\L	.	.	.
.	.	.	16cc#\L	.	16ee\L	.	.	.	.	.	16cc#\L	.	16ee\L	.	.	.
.	.	.	16b\JJ	.	16dd\JJ	.	.	.	.	.	16b\JJ	.	16dd\JJ	.	.	.
!	!	!	!	!	!	!	!	!	!	!	!	!	!LO:LB:g=original	!	!	!
=26	=26	=26	=26	=26	=26	=26	=26	=26	=26	=26	=26	=26	=26	=26	=26	=26
8r	.	.	8a#X/L	.	8cc#\L	.	0r	.	0r	.	8a#X\	-tu	8cc#\	-tu	2ryy	2ryy
!LO:SIC:v:s=8F#\L	!	!	!	!	!	!	!	!	!	!	!	!	!	!	!	!
8F\L	8 #	.	8a#/	.	8ff#\	.	.	.	.	.	8a#\L	us-	8ff#\L	us-	.	.
8G\	6\ 3	.	8b/	.	8ee#X\	.	.	.	.	.	8b\J	.	8ee#X\J	.	.	.
8A#X\J	n5r 3	.	8cc#/J	.	8een\J	.	.	.	.	.	8cc#\	-que	8een\	-que	.	.
!LO:LB:g=original	!	!	!	!	!	!	!	!	!	!	!	!	!	!	!	!
=27	=27	=27	=27	=27	=27	=27	=27	=27	=27	=27	=27	=27	=27	=27	=27	=27
!LO:TX:t=P:problem=mixed beam	!	!	!	!	!	!	!	!	!	!	!	!	!	!	!	!
8B\L	3	.	4b/	.	8dd\L	.	.	.	.	.	8b\	ad	8dd\	ad	2ryy	2ryy
8BB/	8 #	.	.	.	8dd#X\	.	.	.	.	.	8b\	oc-	8dd#X\	oc-	.	.
!LO:SIC:v:s=8C#/	!	!	!	!	!	!	!	!	!	!	!	!	!	!	!	!
8C/	6\ 3	.	8a#X/L	.	8ee\	.	.	.	.	.	8a#X\L	-ca-	8ee\L	-ca-	.	.
8D#X/J	n5r 3	.	8an/J	.	8ff#\J	.	.	.	.	.	8an\J	.	8ff#\J	.	.	.
!	!	!	!	!	!LO:LB:g=original	!	!	!	!	!	!	!	!	!	!	!
=28	=28	=28	=28	=28	=28	=28	=28	=28	=28	=28	=28	=28	=28	=28	=28	=28
8E\L	3	.	8g/L	.	8ee\L	.	.	.	.	.	8g\L	.	4ee\	.	2ryy	2ryy
8E\	8 #	.	8g#X/	.	8ee\	.	.	.	.	.	8g#X\	.	.	.	.	.
!LO:SIC:v:s=8F#\	!	!	!	!	!	!	!	!	!	!	!	!	!	!	!	!
8F\	6 3	.	8a/	.	8dd#X\	.	.	.	.	.	8a\	.	8dd#X\L	.	.	.
8G#X\J	n5r 3	.	8b/J	.	8ddn\J	.	.	.	.	.	8b\J	.	8ddn\J	.	.	.
=29	=29	=29	=29	=29	=29	=29	=29	=29	=29	=29	=29	=29	=29	=29	=29	=29
!LO:TX:t=P:problem=mixed beam	!	!	!	!	!	!	!	!	!	!	!	!	!	!	!	!
8A\L	3	.	4a/	.	4cc#\	.	.	.	.	.	4a\	.	4cc#\	.	2ryy	2ryy
8AA/	6 3	.	.	.	.	.	.	.	.	.	.	.	.	.	.	.
8BB/	6\ 3	.	8g#X/L	.	8dd\L	.	.	.	.	.	8g#X\L	.	8dd\L	.	.	.
!LO:SIC:v:s=8C#/J	!	!	!	!	!	!	!	!	!	!	!	!	!	!	!	!
8C/J	n5r 3	.	8gn/J	.	8ee\J	.	.	.	.	.	8gn\J	.	8ee\J	.	.	.
!	!	!	!	!	!	!	!	!	!	!	!LO:LB:g=original	!	!	!	!	!
=30	=30	=30	=30	=30	=30	=30	=30	=30	=30	=30	=30	=30	=30	=30	=30	=30
8D\L	3_	.	4f#/	.	4dd\	.	8r	.	1r	.	4f#\	-lum	4dd\	-ſum	2ryy	2ryy
8D\	.	.	.	.	.	.	8D\	Lau-	.	.	.	.	.	.	.	.
8d\	.	.	[y4a/	.	[y4ff#\	.	8d\	-da-	.	.	4a\	lau-	4ff#\	lau-	.	.
!LO:SIC:v:s=8c#\J	!	!	!	!	!	!	!	!	!	!	!	!	!	!	!	!
8c\J	.	.	.	.	.	.	8c#\	-te	.	.	.	.	.	.	.	.
=31	=31	=31	=31	=31	=31	=31	=31	=31	=31	=31	=31	=31	=31	=31	=31	=31
*2\right	*	*	*	*	*	*	*2\right	*	*	*	*	*	*	*	*	*
!	!	!	!LO:N:xstem:cue	!	!LO:N:xstem:cue	!	!	!	!	!	!	!	!	!	!	!
2B\	7_ 5_	.	8a/]	.	8ff#\]	.	2B\	No-	.	.	8a\L	-da-	8ff#\L	-da-	2ryy	2ryy
.	.	.	16b/LL	.	16gg\LL	.	.	.	.	.	16b\L	.	16gg\L	.	.	.
.	.	.	16a/JJ	.	16ff#\JJ	.	.	.	.	.	16a\JJ	.	16ff#\JJ	.	.	.
.	6 4	.	8g/L	.	8ee\L	.	.	.	.	.	8g\	-bi-	8ee\	-bi-	.	.
.	5 3	.	8f#/J	.	8dd\J	.	.	.	.	.	8f#\	-le	8dd\	-le	.	.
!	!	!	!	!	!	!	!	!	!	!	!	!	!LO:LB:g=original	!	!	!
=32	=32	=32	=32	=32	=32	=32	=32	=32	=32	=32	=32	=32	=32	=32	=32	=32
4B\	4_ 2_	.	2e/	.	2cc#\	.	4B\	.	8r	.	2e\	no-	2cc#\	No-	2ryy	2ryy
.	.	.	.	.	.	.	.	.	8g\	Lau-	.	.	.	.	.	.
8A\L	.	.	.	.	.	.	8A\L	.	8g\	-da-	.	.	.	.	.	.
8G\J	.	.	.	.	.	.	8G\J	.	8g\	-te	.	.	.	.	.	.
!	!	!	!	!	!	!	!	!	!LO:LB:g=original	!	!	!	!	!	!	!
=33	=33	=33	=33	=33	=33	=33	=33	=33	=33	=33	=33	=33	=33	=33	=33	=33
!LO:SIC:v:s=2F#\	!	!	!	!	!	!	!	!	!	!	!	!	!	!	!	!
2F\	9	.	2a/	.	2cc#\	.	2F#\	.	8.g\L	no-	2a\	.	2cc#\	.	2ryy	2ryy
.	.	.	.	.	.	.	.	.	32a\LL	.	.	.	.	.	.	.
.	.	.	.	.	.	.	.	.	32g\JJJ	.	.	.	.	.	.	.
.	8 3	.	.	.	.	.	.	.	8f#\	-men	.	.	.	.	.	.
.	7	.	.	.	.	.	.	.	8e\	.	.	.	.	.	.	.
=34	=34	=34	=34	=34	=34	=34	=34	=34	=34	=34	=34	=34	=34	=34	=34	=34
*	*	*	*	*	*	*	*	*	*2\right	*	*	*	*	*	*	*
2G\	9	.	8a/L	.	2b\	.	2G\	-men	2d\	Do-	8a\L	.	2b\	-men	2ryy	2ryy
.	.	.	16b/L	.	.	.	.	.	.	.	16b\L	.	.	.	.	.
.	.	.	16a/JJ	.	.	.	.	.	.	.	16a\JJ	.	.	.	.	.
.	8 3	.	8g/L	.	.	.	.	.	.	.	8g\	.	.	.	.	.
.	7	.	8f#/J	.	.	.	.	.	.	.	8f#\	-men	.	.	.	.
=35	=35	=35	=35	=35	=35	=35	=35	=35	=35	=35	=35	=35	=35	=35	=35	=35
2A\	9	.	2e/	.	8b\L	.	4.A\	Do-	4.c#\	-mi-	4.e\	Do-	8b\L	Do-	2ryy	2ryy
.	.	.	.	.	16cc#\L	.	.	.	.	.	.	.	16cc#\L	.	.	.
.	.	.	.	.	16b\JJ	.	.	.	.	.	.	.	16b\JJ	.	.	.
.	8 3	.	.	.	8a/L	.	.	.	.	.	.	.	8a\	.	.	.
.	7	.	.	.	8g/J	.	8A\	-mi-	8c#\	.	8e\	-mi-	8g\	-mi-	.	.
!	!	!	!	!	!	!	!LO:LB:g=original	!	!	!	!LO:LB:g=original	!	!	!	!	!
=36	=36	=36	=36	=36	=36	=36	=36	=36	=36	=36	=36	=36	=36	=36	=36	=36
!	!	!	!	!	!LO:TX:t=P:problem=mixed beam	!	!	!	!	!	!	!	!	!	!	!
!	!	!	!	!	!LO:TX:a:i:t=Solo:rj	!	!	!	!	!	!	!	!	!	!	!
4D\	3	.	4d/	.	8f#/L	.	4D\	-ni	4A\	-ni	4d\	-ni	4f#/	-ni	2ryy	2ryy
.	.	.	.	.	8ddd\	.	.	.	.	.	.	.	.	.	.	.
4r	.	.	4r	.	8aa\	.	4r	.	4r	.	4r	.	4r	.	.	.
.	.	.	.	.	8bb\J	.	.	.	.	.	.	.	.	.	.	.
!	!	!	!	!	!LO:LB:g=original	!	!	!	!	!	!	!	!	!	!	!
=37	=37	=37	=37	=37	=37	=37	=37	=37	=37	=37	=37	=37	=37	=37	=37	=37
!	!	!	!	!	!	!	!	!	!	!	!LO:TX:a:t=3	!	!LO:TX:a:t=3	!	!	!
2r	.	.	8r	.	4.ff#\	.	1r	.	1r	.	1r	.	1r	.	2ryy	2ryy
!	!	!	!LO:TX:a:i:t=Solo:rj	!	!	!	!	!	!	!	!	!	!	!	!	!
.	.	.	8dd\L	.	.	.	.	.	.	.	.	.	.	.	.	.
.	.	.	8b\	.	.	.	.	.	.	.	.	.	.	.	.	.
.	.	.	8cc#\J	.	8gg\	.	.	.	.	.	.	.	.	.	.	.
=38	=38	=38	=38	=38	=38	=38	=38	=38	=38	=38	=38	=38	=38	=38	=38	=38
8r	.	.	4.f#/	.	8aa\L	.	.	.	.	.	.	.	.	.	2ryy	2ryy
8d\L	.	.	.	.	8ff#\J	.	.	.	.	.	.	.	.	.	.	.
8A\	6 4_	.	.	.	[y4dd\	.	.	.	.	.	.	.	.	.	.	.
8B\J	6 _	.	8g/	.	.	.	.	.	.	.	.	.	.	.	.	.
!LO:LB:g=original	!	!	!LO:LB:g=original	!	!	!	!	!	!	!	!	!	!	!	!	!
=39	=39	=39	=39	=39	=39	=39	=39	=39	=39	=39	=39	=39	=39	=39	=39	=39
!LO:SIC:v:s=8F#\L	!	!	!	!	!	!	!	!	!	!	!	!	!	!	!	!
!LO:TX:t=P:problem=mixed beam	!	!	!	!	!LO:N:xstem:cue	!	!	!	!	!	!	!	!	!	!	!
8F\L	6	.	8a/L	.	8dd\]	.	2r	.	2r	.	2r	.	2r	.	2ryy	2ryy
8G\	6	.	8b/J	.	8ee\L	.	.	.	.	.	.	.	.	.	.	.
8A\	4	.	4e/	.	8dd\	.	.	.	.	.	.	.	.	.	.	.
8AA/J	3	.	.	.	8cc#\J	.	.	.	.	.	.	.	.	.	.	.
=40	=40	=40	=40	=40	=40	=40	=40	=40	=40	=40	=40	=40	=40	=40	=40	=40
!LO:TX:a:i:t=tutti	!	!	!	!	!	!LO:DY:a:t=for	!	!	!	!	!	!	!	!	!	!
8D\L	.	.	16f#/LL	.	8dd\L	f	4D\	Ex-	4A\	Ex-	4f#\	Ex-	4dd\	Ex-	2ryy	2ryy
.	.	.	16a/	.	.	.	.	.	.	.	.	.	.	.	.	.
8D\	.	.	16f#/	.	8ff#\J	.	.	.	.	.	.	.	.	.	.	.
.	.	.	16a/JJ	.	.	.	.	.	.	.	.	.	.	.	.	.
*	*	*	*rep	*	*	*	*	*	*	*	*	*	*	*	*	*
8D\	.	.	16f#/LL	.	[y4aa\	.	8D\	-cel-	8A\	-cel-	8f#\	-cel-	8dd\	-cel-	.	.
.	.	.	16a/	.	.	.	.	.	.	.	.	.	.	.	.	.
8D\J	.	.	16f#/	.	.	.	8D\	-ſus	8A\	-sus	8f#\	-ſus	8dd\	-suſ	.	.
.	.	.	16a/JJ	.	.	.	.	.	.	.	.	.	.	.	.	.
*	*	*	*Xrep	*	*	*	*	*	*	*	*	*	*	*	*	*
!	!	!	!	!	!	!	!	!	!LO:LB:g=original	!	!	!	!	!	!	!
=41	=41	=41	=41	=41	=41	=41	=41	=41	=41	=41	=41	=41	=41	=41	=41	=41
*tremolo	*	*	*tremolo	*	*	*	*	*	*	*	*	*	*	*	*	*
!	!	!	!	!	!LO:N:xstem:cue	!	!	!	!	!	!	!	!	!	!	!
8D\L	.	.	16f#/LL	.	8aa\]	.	4D\	Su-	4A\	Su-	4f#\	Su-	4dd\	Su-	2ryy	2ryy
.	.	.	16a/	.	.	.	.	.	.	.	.	.	.	.	.	.
8D\	.	.	16f#/	.	16bb\LL	.	.	.	.	.	.	.	.	.	.	.
.	.	.	16a/	.	16aa\JJ	.	.	.	.	.	.	.	.	.	.	.
8D\	.	.	16f#/	.	8gg\L	.	4D\	-per	4A\	-per	4f#\	-per	4dd\	-per	.	.
.	.	.	16a/	.	.	.	.	.	.	.	.	.	.	.	.	.
8D\J	.	.	16f#/	.	8ff#\J	.	.	.	.	.	.	.	.	.	.	.
.	.	.	16a/JJ	.	.	.	.	.	.	.	.	.	.	.	.	.
*Xtremolo	*	*	*	*	*	*	*	*	*	*	*	*	*	*	*	*
!	!	!	!	!	!	!	!	!	!	!	!	!	!LO:LB:g=original	!	!	!
=42	=42	=42	=42	=42	=42	=42	=42	=42	=42	=42	=42	=42	=42	=42	=42	=42
!LO:SIC:v:s=8C#/L	!	!	!	!	!	!	!	!	!	!	!	!	!	!	!	!
8C/L	6_ 5_	.	16e/LL	.	8ee\L	.	8C#/	om-	8A\	om-	8g\	om-	8ee\	om-	2ryy	2ryy
.	.	.	16a/	.	.	.	.	.	.	.	.	.	.	.	.	.
!LO:SIC:v:s=8C#/	!	!	!	!	!	!	!	!	!	!	!	!	!	!	!	!
8C/	.	.	16e/	.	8a\J	.	8C#/	-nes	8A\	-nes	8g\	-nes	8ee\	-nes	.	.
.	.	.	16a/	.	.	.	.	.	.	.	.	.	.	.	.	.
!LO:SIC:v:s=8C#/	!	!	!	!	!	!	!	!	!	!	!	!	!	!	!	!
8C/	.	.	16e/	.	[y4gg\	.	8C#/	gen-	8A\	gen-	8g\	gen-	8ee\	gen-	.	.
.	.	.	16a/	.	.	.	.	.	.	.	.	.	.	.	.	.
!LO:SIC:v:s=8C#/J	!	!	!	!	!	!	!	!	!	!	!	!	!	!	!	!
8C/J	.	.	16e/	.	.	.	8C#/	-tes	8A\	-tes	8g\	-tes	8ee\	-tes	.	.
.	.	.	16a/JJ	.	.	.	.	.	.	.	.	.	.	.	.	.
=43	=43	=43	=43	=43	=43	=43	=43	=43	=43	=43	=43	=43	=43	=43	=43	=43
*tremolo	*	*	*	*	*	*	*	*	*	*	*	*	*	*	*	*
!LO:SIC:v:s=8C#/L	!	!	!	!	!LO:N:xstem:cue	!	!	!	!	!	!	!	!	!	!	!
8C/L	.	.	16e/LL	.	8gg\]	.	4.C#/	Do-	4.A\	Do-	4.g\	Do-	4.ee\	Do-	2ryy	2ryy
.	.	.	16a/	.	.	.	.	.	.	.	.	.	.	.	.	.
!LO:SIC:v:s=8C#/	!	!	!	!	!	!	!	!	!	!	!	!	!	!	!	!
8C/	.	.	16e/	.	16ff#\LL	.	.	.	.	.	.	.	.	.	.	.
.	.	.	16a/	.	16gg\JJ	.	.	.	.	.	.	.	.	.	.	.
!LO:SIC:v:s=8C#/	!	!	!	!	!	!	!	!	!	!	!	!	!	!	!	!
8C/	.	.	16e/	.	8aa\L	.	.	.	.	.	.	.	.	.	.	.
.	.	.	16a/	.	.	.	.	.	.	.	.	.	.	.	.	.
!LO:SIC:v:s=8C#/J	!	!	!	!	!	!	!	!	!	!	!	!	!	!	!	!
8C/J	.	.	16e/	.	8gg\J	.	8C#/	-mi-	8A\	-mi-	8g\	-mi-	8ee\	-mi-	.	.
.	.	.	16a/JJ	.	.	.	.	.	.	.	.	.	.	.	.	.
!	!	!	!	!	!	!	!LO:LB:g=original	!	!	!	!LO:LB:g=original	!	!	!	!	!
=44	=44	=44	=44	=44	=44	=44	=44	=44	=44	=44	=44	=44	=44	=44	=44	=44
8D\L	x	.	16f#/LL	.	8ff#\L	.	8D\	-nus	8A\	-nus	8f#\	-nus	8dd\	-nus	2ryy	2ryy
.	.	.	16a/	.	.	.	.	.	.	.	.	.	.	.	.	.
8D\	.	.	16f#/	.	8dd\J	.	8D\	et	8A\	et	8f#\	et	8dd\	(et)	.	.
.	.	.	16a/	.	.	.	.	.	.	.	.	.	.	.	.	.
8D\	.	.	16f#/	.	[y4aa\	.	8D\	Su-	8A\	Su-	8f#\	Su-	8dd\	Su-	.	.
.	.	.	16a/	.	.	.	.	.	.	.	.	.	.	.	.	.
8D\J	.	.	16f#/	.	.	.	8D\	-per	8A\	-per	8f#\	-per	8dd\	-per	.	.
.	.	.	16a/JJ	.	.	.	.	.	.	.	.	.	.	.	.	.
!	!	!	!	!	!LO:LB:g=original	!	!	!	!	!	!	!	!	!	!	!
=45	=45	=45	=45	=45	=45	=45	=45	=45	=45	=45	=45	=45	=45	=45	=45	=45
!	!	!	!	!	!LO:N:xstem:cue	!	!	!	!	!	!	!	!	!	!	!
8D\L	.	.	16f#/LL	.	8aa\]	.	4D\	Ce-	4A\	Ce-	4f#\	Ce-	4dd\	Ce-	2ryy	2ryy
.	.	.	16a/	.	.	.	.	.	.	.	.	.	.	.	.	.
8D\	.	.	16f#/	.	16bb\LL	.	.	.	.	.	.	.	.	.	.	.
.	.	.	16a/	.	16aa\JJ	.	.	.	.	.	.	.	.	.	.	.
8D\	.	.	16f#/	.	8gg\L	.	4D\	-los	4A\	-los	4f#\	-los	4dd\	-los	.	.
.	.	.	16a/	.	.	.	.	.	.	.	.	.	.	.	.	.
8D\J	.	.	16f#/	.	8ff#\J	.	.	.	.	.	.	.	.	.	.	.
.	.	.	16a/JJ	.	.	.	.	.	.	.	.	.	.	.	.	.
!	!	!	!	!	!	!	!	!	!LO:LB:g=original	!	!	!	!	!	!	!
=46	=46	=46	=46	=46	=46	=46	=46	=46	=46	=46	=46	=46	=46	=46	=46	=46
!LO:SIC:v:s=8C#/L	!	!	!	!	!	!	!	!	!	!	!	!	!	!	!	!
8C/L	6_ 5_	.	16e/LL	.	8ee\L	.	4C#/	Glo-	4A\	Glo-	4g\	glo-	4ee\	Glo-	2ryy	2ryy
.	.	.	16a/	.	.	.	.	.	.	.	.	.	.	.	.	.
!LO:SIC:v:s=8C#/	!	!	!	!	!	!	!	!	!	!	!	!	!	!	!	!
8C/	.	.	16e/	.	8a\J	.	.	.	.	.	.	.	.	.	.	.
.	.	.	16a/	.	.	.	.	.	.	.	.	.	.	.	.	.
!LO:SIC:v:s=8C#/	!	!	!	!	!	!	!	!	!	!	!	!	!	!	!	!
8C/	.	.	16e/	.	[y4gg\	.	8C#/	-ri-	8A\	-ri-	8g\	-ri-	8ee\	-ri-	.	.
.	.	.	16a/	.	.	.	.	.	.	.	.	.	.	.	.	.
!LO:SIC:v:s=8C#/J	!	!	!	!	!	!	!	!	!	!	!	!	!	!	!	!
8C/J	.	.	16e/	.	.	.	8C#/	-a	8A\	-a	8g\	-a	8ee\	-a	.	.
.	.	.	16a/JJ	.	.	.	.	.	.	.	.	.	.	.	.	.
=47	=47	=47	=47	=47	=47	=47	=47	=47	=47	=47	=47	=47	=47	=47	=47	=47
!LO:SIC:v:s=8C#/L	!	!	!	!	!LO:N:xstem:cue	!	!	!	!	!	!	!	!	!	!	!
8C/L	.	.	16e/LL	.	8gg\]	.	2C#/	e-	2A\	e-	2g\	e-	2ee\	e-	2ryy	2ryy
.	.	.	16a/	.	.	.	.	.	.	.	.	.	.	.	.	.
!LO:SIC:v:s=8C#/	!	!	!	!	!	!	!	!	!	!	!	!	!	!	!	!
8C/	.	.	16e/	.	16ff#\LL	.	.	.	.	.	.	.	.	.	.	.
.	.	.	16a/	.	16gg\JJ	.	.	.	.	.	.	.	.	.	.	.
!LO:SIC:v:s=8C#/	!	!	!	!	!	!	!	!	!	!	!	!	!	!	!	!
8C/	.	.	16e/	.	8aa\L	.	.	.	.	.	.	.	.	.	.	.
.	.	.	16a/	.	.	.	.	.	.	.	.	.	.	.	.	.
!LO:SIC:v:s=8C#/J	!	!	!	!	!	!	!	!	!	!	!	!	!	!	!	!
8C/J	.	.	16e/	.	8gg\J	.	.	.	.	.	.	.	.	.	.	.
.	.	.	16a/JJ	.	.	.	.	.	.	.	.	.	.	.	.	.
*Xtremolo	*	*	*Xtremolo	*	*	*	*	*	*	*	*	*	*	*	*	*
!	!	!	!	!	!	!	!	!	!	!	!	!	!LO:LB:g=original	!	!	!
=48	=48	=48	=48	=48	=48	=48	=48	=48	=48	=48	=48	=48	=48	=48	=48	=48
*	*	*	*^	*	*	*	*	*	*	*	*	*	*	*	*	*
4D\	x	.	4a/	4f#\	.	8ff#\L	.	4D\	-juſ	4A\	-jus	8f#\	-jus	4dd\	-jus	2ryy	2ryy
.	.	.	.	.	.	16dd\L	.	.	.	.	.	16d\LL	qui	.	.	.	.
.	.	.	.	.	.	16ee\JJ	.	.	.	.	.	16e\JJ	.	.	.	.	.
4r	.	.	4r	4ryy	.	8ff#\L	.	4r	.	4r	.	8f#\	Si-	4r	.	.	.
.	.	.	.	.	.	8dd\J	.	.	.	.	.	8d\	-cut	.	.	.	.
*	*	*	*v	*v	*	*	*	*	*	*	*	*	*	*	*	*	*
!	!	!	!	!	!	!	!	!	!	!	!LO:PB:g=original	!	!	!	!	!
=49	=49	=49	=49	=49	=49	=49	=49	=49	=49	=49	=49	=49	=49	=49	=49	=49
8r	.	.	8r	.	4.aa\	.	8r	.	8r	.	4.a\	Do-	8r	.	2ryy	2ryy
16A\LL	.	.	16cc#\LL	.	.	.	16A\LL	De-	4A\	Do-	.	.	16cc#\LL	Do-	.	.
16B\JJ	.	.	16dd\JJ	.	.	.	16B\JJ	.	.	.	.	.	16dd\JJ	.	.	.
!LO:SIC:v:s=8c#\L	!	!	!	!	!	!	!	!	!	!	!	!	!	!	!	!
8c\L	.	.	8ee\L	.	.	.	8c#\L	.	.	.	.	.	8ee\	-mi-	.	.
8A\J	.	.	8cc#\J	.	8gg\	.	8A\J	.	8A\	-mi-	8g\	-mi-	8cc#\	.	.	.
!	!	!	!	!	!	!	!LO:LB:g=original	!	!	!	!	!	!	!	!	!
=50	=50	=50	=50	=50	=50	=50	=50	=50	=50	=50	=50	=50	=50	=50	=50	=50
4d\	.	.	4a/	.	8ff#\L	.	4d\	-uſ	4A\	-nuſ	8f#\	-nuſ	4dd\	-nuſ	2ryy	2ryy
.	.	.	.	.	16dd\L	.	.	.	.	.	16d\LL	De-	.	.	.	.
.	.	.	.	.	16ee\JJ	.	.	.	.	.	16e\JJ	.	.	.	.	.
4r	.	.	4r	.	8ff#\L	.	4r	.	4r	.	8f#\	.	4r	.	.	.
.	.	.	.	.	8dd\J	.	.	.	.	.	8d\	uſ	.	.	.	.
!LO:LB:g=original	!	!	!LO:LB:g=original	!	!	!	!	!	!	!	!	!	!	!	!	!
=51	=51	=51	=51	=51	=51	=51	=51	=51	=51	=51	=51	=51	=51	=51	=51	=51
8r	.	.	8r	.	4.aa\	.	8r	.	8r	.	4.a\	Nos-	8r	.	2ryy	2ryy
16A\LL	.	.	16cc#\LL	.	.	.	16A\LL	Noſ-	4.A\	No-	.	.	16cc#\LL	Nos-	.	.
16B\JJ	.	.	16dd\JJ	.	.	.	16B\JJ	.	.	.	.	.	16dd\JJ	.	.	.
!LO:SIC:v:s=8c#\L	!	!	!	!	!	!	!	!	!	!	!	!	!	!	!	!
8c\L	.	.	8ee\L	.	.	.	8c#\L	.	.	.	.	.	8ee\L	.	.	.
8A\J	.	.	8cc#\J	.	8gg\	.	8A\J	.	.	.	8g\	-ter	8cc#\J	.	.	.
=52	=52	=52	=52	=52	=52	=52	=52	=52	=52	=52	=52	=52	=52	=52	=52	=52
4.d\	.	.	4dd\	.	8ff#\L	.	4d\	-ter	4A\	-ſter	4f#\	qui	8dd\	-ter	2ryy	2ryy
.	.	.	.	.	8a\J	.	.	.	.	.	.	.	8a\	qui	.	.
.	.	.	4f#/	.	4dd\	.	8D\	qui	8A\	qui	8f#\	.	4dd\	in	.	.
8D\	.	.	.	.	.	.	8D\	in	8A\	in	8f#\	in	.	.	.	.
!	!	!	!	!	!LO:LB:g=original	!	!	!	!LO:LB:g=original	!	!	!	!	!	!	!
=53	=53	=53	=53	=53	=53	=53	=53	=53	=53	=53	=53	=53	=53	=53	=53	=53
2A\	4	.	8e/L	.	4dd\	.	4A\	al-	4A\	al-	8e\L	al-	4dd\	al-	2ryy	2ryy
.	.	.	16f#/L	.	.	.	.	.	.	.	16f#\L	.	.	.	.	.
.	.	.	16g/JJ	.	.	.	.	.	.	.	16g\JJ	.	.	.	.	.
.	3	.	4a/	.	4cc#\	.	4A\	-tiſ	4A\	-tus	4a\	-tiſ	4cc#\	-tiſ	.	.
!	!	!	!	!	!	!	!	!	!	!	!LO:LB:g=original	!	!LO:PB:g=original	!	!	!
=54	=54	=54	=54	=54	=54	=54	=54	=54	=54	=54	=54	=54	=54	=54	=54	=54
2E\	4	.	4a/	.	8b\L	.	4E\	ha-	4B\	ha-	4a\	ha-	8b\L	ha-	2ryy	2ryy
.	.	.	.	.	16cc#\L	.	.	.	.	.	.	.	16cc#\L	.	.	.
.	.	.	.	.	16dd\JJ	.	.	.	.	.	.	.	16dd\JJ	.	.	.
.	3	.	4g/	.	4ee\	.	4E\	-bi-	4B\	-bi-	4g\	-bi-	4ee\	.	.	.
=55	=55	=55	=55	=55	=55	=55	=55	=55	=55	=55	=55	=55	=55	=55	=55	=55
2B\	4	.	8f#/L	.	4ee\	.	4B\	-tat	4B\	-tat	8f#\L	-tat	4ee\	.	2ryy	2ryy
.	.	.	16g/L	.	.	.	.	.	.	.	16g\L	.	.	.	.	.
.	.	.	16a/JJ	.	.	.	.	.	.	.	16a\JJ	.	.	.	.	.
.	3	.	4b/	.	4dd\	.	8B\	et	8B\	et	8b\	(et)	4dd\	-bi-	.	.
.	.	.	.	.	.	.	8B\	hu-	8B\	hu-	8b\	hu-	.	.	.	.
=56	=56	=56	=56	=56	=56	=56	=56	=56	=56	=56	=56	=56	=56	=56	=56	=56
!LO:SIC:v:s=2F#\	!	!	!	!	!	!	!	!	!	!	!	!	!	!	!	!
2F\	4	.	4b/	.	8cc#\L	.	4F#\	-mi-	4c#\	-mi-	4b\	-mi-	8cc#\L	-tat	2ryy	2ryy
.	.	.	.	.	16dd\L	.	.	.	.	.	.	.	16dd\L	.	.	.
.	.	.	.	.	16ee\JJ	.	.	.	.	.	.	.	16ee\JJ	.	.	.
.	3	.	4a/	.	4ff#\	.	4F#\	-li-	4c#\	-li-	4a\	-li-	8ff#\	(et)	.	.
.	.	.	.	.	.	.	.	.	.	.	.	.	8ff#\	hu-	.	.
=57	=57	=57	=57	=57	=57	=57	=57	=57	=57	=57	=57	=57	=57	=57	=57	=57
!LO:SIC:v:s=2c#\	!	!	!	!	!	!	!	!	!	!	!	!	!	!	!	!
2c\	4	.	8g/L	.	4ff#\	.	4c#\	-a	4c#\	-a	8g\L	-a	4ff#\	-mi-	2ryy	2ryy
.	.	.	16a/L	.	.	.	.	.	.	.	16a\L	.	.	.	.	.
.	.	.	16b/JJ	.	.	.	.	.	.	.	16b\JJ	.	.	.	.	.
.	3	.	4cc#\	.	4ee\	.	4c#\	res-	4c#\	reſ-	4cc#\	reſ-	4ee\	-li-	.	.
=58	=58	=58	=58	=58	=58	=58	=58	=58	=58	=58	=58	=58	=58	=58	=58	=58
2G\	4	.	4cc#\	.	8dd\L	.	2G\	-pi-	2d\	-pi-	4cc#\	-pi-	8dd\L	-a	2ryy	2ryy
.	.	.	.	.	16ee\L	.	.	.	.	.	.	.	16ee\L	.	.	.
.	.	.	.	.	16ff#\JJ	.	.	.	.	.	.	.	16ff#\JJ	.	.	.
.	3	.	4b\	.	4gg\	.	.	.	.	.	4b\	.	4gg\	reſ-	.	.
=59	=59	=59	=59	=59	=59	=59	=59	=59	=59	=59	=59	=59	=59	=59	=59	=59
2d\	4	.	8a\L	.	4gg\	.	4d\	-cit	4d\	-cit	8a\L	cit	4gg\	-pi-	2ryy	2ryy
.	.	.	16b\L	.	.	.	.	.	.	.	16b\L	.	.	.	.	.
.	.	.	16cc#\JJ	.	.	.	.	.	.	.	16cc#\JJ	.	.	.	.	.
.	3	.	4dd\	.	4ff#\	.	4d\	in	4d\	in	4dd\	in	4ff#\	.	.	.
!	!	!	!	!	!	!	!	!	!LO:LB:g=original	!	!LO:LB:g=original	!	!LO:LB:g=original	!	!	!
=60	=60	=60	=60	=60	=60	=60	=60	=60	=60	=60	=60	=60	=60	=60	=60	=60
2A\	4	.	4dd\	.	8ee\L	.	4A\	Ce-	4e\	Ce-	4dd\	Ce-	8ee\L	-cit	2ryy	2ryy
.	.	.	.	.	16ff#\L	.	.	.	.	.	.	.	16ff#\L	.	.	.
.	.	.	.	.	16gg\JJ	.	.	.	.	.	.	.	16gg\JJ	.	.	.
.	3	.	4cc#\	.	[y4aa\	.	4A\	-lo	4e\	-lo	4cc#\	-lo	4aa\	in	.	.
=61	=61	=61	=61	=61	=61	=61	=61	=61	=61	=61	=61	=61	=61	=61	=61	=61
!	!	!	!	!	!LO:N:xstem:cue	!	!	!	!	!	!	!	!	!	!	!
4d\	.	.	4dd\	.	8aa\]	.	4d\	et	4f#\	et	4dd\	et	4aa\	Ce-	2ryy	2ryy
.	.	.	.	.	16gg\LL	.	.	.	.	.	.	.	.	.	.	.
.	.	.	.	.	16ff#\JJ	.	.	.	.	.	.	.	.	.	.	.
4G\	6	.	4b\	.	8ee\L	.	4G\	in	8e\L	in	4b\	in	8gg\L	-lo	.	.
.	5	.	.	.	8dd\J	.	.	.	8d\J	.	.	.	8ff#\J	.	.	.
!	!	!	!LO:LB:g=original	!	!LO:LB:g=original	!	!	!	!	!	!	!	!	!	!	!
=62	=62	=62	=62	=62	=62	=62	=62	=62	=62	=62	=62	=62	=62	=62	=62	=62
8A\L	3_	.	4e/	.	4cc#\	.	8A\L	ter-	4c#\	ter-	2a\	ter-	4ee\	(et)	2ryy	2ryy
8G\	.	.	.	.	.	.	8G\	.	.	.	.	.	.	.	.	.
!LO:SIC:v:s=8F#\	!	!	!	!	!	!	!	!	!	!	!	!	!	!	!	!
8F\	6_	.	4f#/	.	4dd\	.	8F#\	.	4d\	.	.	.	4ff#\	in	.	.
8E\J	.	.	.	.	.	.	8D\J	.	.	.	.	.	.	.	.	.
!LO:LB:g=original	!	!	!	!	!	!	!	!	!	!	!	!	!	!	!	!
=63	=63	=63	=63	=63	=63	=63	=63	=63	=63	=63	=63	=63	=63	=63	=63	=63
!LO:TX:t=P:problem=mixed beam	!	!	!	!	!	!	!LO:TX:t=P:problem=mixed beam	!	!	!	!	!	!	!	!	!
8G\L	6 5	.	2e/	.	4dd\	.	8G\L	.	4d\	.	4b\	.	2ee\	ter-	2ryy	2ryy
8E\	.	.	.	.	.	.	8E\	.	.	.	.	.	.	.	.	.
8A\	3_	.	.	.	4cc#\	.	8A\	.	4c#\	.	4a\	.	.	.	.	.
8AA/J	.	.	.	.	.	.	8AA/J	.	.	.	.	.	.	.	.	.
=64	=64	=64	=64	=64	=64	=64	=64	=64	=64	=64	=64	=64	=64	=64	=64	=64
!	!	!	!	!	!LO:TX:a:i:t=Solo:rj	!	!	!	!	!	!	!	!	!	!	!
4D\	x	.	4f#/	.	8dd\L	.	4D\	-ra	4d\	-ra	4a\	-ra	4ff#\	-ra	2ryy	2ryy
.	.	.	.	.	8ddd\	.	.	.	.	.	.	.	.	.	.	.
4r	.	.	4r	.	8aa\	.	4r	.	4r	.	4r	.	4r	.	.	.
.	.	.	.	.	8bb\J	.	.	.	.	.	.	.	.	.	.	.
!	!	!	!	!	!	!	!LO:LB:g=original	!	!	!	!	!	!	!	!	!
=65	=65	=65	=65	=65	=65	=65	=65	=65	=65	=65	=65	=65	=65	=65	=65	=65
!LO:TX:a:i:t=Solo	!	!	!LO:TX:a:i:t=Solo	!	!	!	!	!	!	!	!	!	!	!	!	!
2r	.	.	8r	.	4.ff#\	.	0r	.	0r	.	1r	.	0r	.	2ryy	2ryy
.	.	.	8dd\L	.	.	.	.	.	.	.	.	.	.	.	.	.
.	.	.	8a\	.	.	.	.	.	.	.	.	.	.	.	.	.
.	.	.	8b\J	.	8gg\	.	.	.	.	.	.	.	.	.	.	.
=66	=66	=66	=66	=66	=66	=66	=66	=66	=66	=66	=66	=66	=66	=66	=66	=66
!	!	!LO:DY:a	!	!	!	!	!	!	!	!	!	!	!	!	!	!
8r	.	p	4.f#/	.	8aa\L	.	.	.	.	.	.	.	.	.	2ryy	2ryy
8d\L	.	.	.	.	8ff#\J	.	.	.	.	.	.	.	.	.	.	.
8A\	6 4_	.	.	.	[y4dd\	.	.	.	.	.	.	.	.	.	.	.
8B\J	6 _	.	8g/	.	.	.	.	.	.	.	.	.	.	.	.	.
=67	=67	=67	=67	=67	=67	=67	=67	=67	=67	=67	=67	=67	=67	=67	=67	=67
!LO:SIC:v:s=8F#\L	!	!	!	!	!	!	!	!	!	!	!	!	!	!	!	!
!LO:TX:t=P:problem=mixed beam	!	!	!	!	!LO:N:xstem:cue	!	!	!	!	!	!	!	!	!	!	!
8F\L	6	.	8a/L	.	8dd\]	.	.	.	.	.	2r	.	.	.	2ryy	2ryy
8G\	6	.	8b/J	.	8ee\L	.	.	.	.	.	.	.	.	.	.	.
8A\	4	.	4e/	.	8dd\	.	.	.	.	.	.	.	.	.	.	.
8AA/J	3	.	.	.	8cc#\J	.	.	.	.	.	.	.	.	.	.	.
=68	=68	=68	=68	=68	=68	=68	=68	=68	=68	=68	=68	=68	=68	=68	=68	=68
!	!	!	!	!	!	!	!	!	!	!	!LO:TX:a:i:t=Solo:rj	!	!	!	!	!
4D\	.	.	4f#/	.	4dd\	.	.	.	.	.	8.dd\	Suſ-	.	.	2ryy	2ryy
.	.	.	.	.	.	.	.	.	.	.	16dd\	-ci-	.	.	.	.
4r	.	.	4r	.	4r	.	.	.	.	.	8a\	-tans	.	.	.	.
.	.	.	.	.	.	.	.	.	.	.	8b\	a-	.	.	.	.
=69	=69	=69	=69	=69	=69	=69	=69	=69	=69	=69	=69	=69	=69	=69	=69	=69
!	!	!	!LO:TX:a:t=2	!	!	!	!	!	!LO:TX:a:i:t=Solo:rj	!	!	!	!	!	!	!
4D\	.	.	1r	.	1r	.	2r	.	8.d\	Suſ-	4.f#\	-ter-	0r	.	2ryy	2ryy
.	.	.	.	.	.	.	.	.	16d\	-ci-	.	.	.	.	.	.
4r	.	.	.	.	.	.	.	.	8A\	-tans	.	.	.	.	.	.
.	.	.	.	.	.	.	.	.	8B\	a	8g\	-na	.	.	.	.
!	!	!	!	!	!	!	!	!	!	!	!LO:LB:g=original	!	!	!	!	!
=70	=70	=70	=70	=70	=70	=70	=70	=70	=70	=70	=70	=70	=70	=70	=70	=70
!	!	!	!	!	!	!	!LO:TX:a:i:t=Solo:rj	!	!	!	!	!	!	!	!	!
8d\L	.	.	.	.	.	.	8.d\	(et)	4.F#/	ter-	8a\	in	.	.	2ryy	2ryy
8d\	.	.	.	.	.	.	.	.	.	.	8f#\	o-	.	.	.	.
.	.	.	.	.	.	.	16d\	de-	.	.	.	.	.	.	.	.
8A\	6 4_	.	.	.	.	.	8A\	-ſtor-	.	.	4d\	-pem	.	.	.	.
8B\J	6 _	.	.	.	.	.	8B\	-co-	8G/	-ra	.	.	.	.	.	.
!	!	!	!	!	!	!	!	!	!LO:LB:g=original	!	!	!	!	!	!	!
=71	=71	=71	=71	=71	=71	=71	=71	=71	=71	=71	=71	=71	=71	=71	=71	=71
!LO:SIC:v:s=4.F#\	!	!	!	!	!	!	!	!	!	!	!	!	!	!	!	!
4.F\	6_ 3	.	8r	.	2r	.	4.F#\	-re	8A/	in-	4.dd\	et	.	.	2ryy	2ryy
.	.	.	8dd\L	.	.	.	.	.	8F#/	-o-	.	.	.	.	.	.
.	.	.	8a\	.	.	.	.	.	4D/	-pem	.	.	.	.	.	.
8G\	_ 3	.	8b\J	.	.	.	8G\	e-	.	.	8b\	de	.	.	.	.
=72	=72	=72	=72	=72	=72	=72	=72	=72	=72	=72	=72	=72	=72	=72	=72	=72
!	!	!	!	!	!LO:TX:a:i:t=Solo:rj	!	!	!	!	!	!	!	!	!	!	!
8A\L	6_ 4_	.	4.f#/	.	8r	.	8A\	.	8d\	et	4.a\	ſter-	.	.	2ryy	2ryy
!LO:SIC:v:s=8F#\J	!	!	!	!	!	!	!	!	!	!	!	!	!	!	!	!
8F\J	.	.	.	.	8ddd\L	.	8F#\	-ri-	8d\	de	.	.	.	.	.	.
4D\	5 3	.	.	.	8aa\	.	4D\	-gens	8d\	ſter-	.	.	.	.	.	.
.	.	.	8g/	.	8bb\J	.	.	.	16c#\LL	-co-	8g\	-co-	.	.	.	.
.	.	.	.	.	.	.	.	.	16B\JJ	.	.	.	.	.	.	.
!	!	!	!	!	!LO:LB:g=original	!	!	!	!	!	!	!	!	!	!	!
=73	=73	=73	=73	=73	=73	=73	=73	=73	=73	=73	=73	=73	=73	=73	=73	=73
4.d\	6 4	.	8a\L	.	4.ff#\	.	4.d\	pau-	8A\	-re	8f#\	-re	0r	.	2ryy	2ryy
.	.	.	16b\L	.	.	.	.	.	16B\LL	e-	16f#\LL	e-	.	.	.	.
.	.	.	16cc#\JJ	.	.	.	.	.	16c#\JJ	.	16e\JJ	.	.	.	.	.
.	.	.	8dd\L	.	.	.	.	.	8d\	-ri-	8f#\	-ri-	.	.	.	.
8G\	6	.	8ee\J	.	8gg\	.	8G\	.	8e\	-gens	8g\	-gens	.	.	.	.
!LO:LB:g=original	!	!	!	!	!	!	!	!	!	!	!	!	!	!	!	!
=74	=74	=74	=74	=74	=74	=74	=74	=74	=74	=74	=74	=74	=74	=74	=74	=74
!LO:TX:t=P:problem=mixed beam	!	!	!	!	!	!	!	!	!	!	!	!	!	!	!	!
8A\L	6 4	.	4dd\	.	4ff#\	.	4A\	.	4d\	pau-	4f#\	pau-	.	.	2ryy	2ryy
8A\	.	.	.	.	.	.	.	.	.	.	.	.	.	.	.	.
8AA/	5 3	.	4cc#\	.	4ee\	.	4AA/	pe-	4c#\	-pe-	4e\	-pe-	.	.	.	.
8AA/J	.	.	.	.	.	.	.	.	.	.	.	.	.	.	.	.
!	!	!	!	!	!	!	!	!	!	!	!LO:LB:g=original	!	!	!	!	!
=75	=75	=75	=75	=75	=75	=75	=75	=75	=75	=75	=75	=75	=75	=75	=75	=75
!LO:TX:t=P:problem=mixed beam	!	!	!	!	!	!	!	!	!	!	!	!	!	!	!	!
8D\L	.	.	4dd\	.	4ff#\	.	4D\	-rem	4d\	-rem	4f#\	-rem	.	.	2ryy	2ryy
8DD/J	.	.	.	.	.	.	.	.	.	.	.	.	.	.	.	.
4r	.	.	4r	.	4r	.	4r	.	8f#\	ut	8a\	ut	.	.	.	.
.	.	.	.	.	.	.	.	.	8f#\	Col-	8a\	Col-	.	.	.	.
!	!	!	!LO:LB:g=original	!	!	!	!	!	!LO:LB:g=original	!	!	!	!	!	!	!
=76	=76	=76	=76	=76	=76	=76	=76	=76	=76	=76	=76	=76	=76	=76	=76	=76
!	!	!	!LO:TX:a:t=8	!	!	!	!	!	!	!	!	!	!	!	!	!
8r	.	.	0r	.	0r	.	0r	.	4.f#\	-lo-	4.a\	-lo-	.	.	2ryy	2ryy
8D\L	.	.	.	.	.	.	.	.	.	.	.	.	.	.	.	.
8A\	6	.	.	.	.	.	.	.	.	.	.	.	.	.	.	.
8A#X\J	5	.	.	.	.	.	.	.	8e\	-cet	8g\	-cet	.	.	.	.
=77	=77	=77	=77	=77	=77	=77	=77	=77	=77	=77	=77	=77	=77	=77	=77	=77
4B\	3_	.	.	.	.	.	.	.	8e\L	e-	8g\L	e-	0r	.	2ryy	2ryy
.	.	.	.	.	.	.	.	.	8d\J	.	8f#\J	.	.	.	.	.
4BB/	.	.	.	.	.	.	.	.	8d\	-um	8f#\	-um	.	.	.	.
.	.	.	.	.	.	.	.	.	8d\	e-	8b\	e-	.	.	.	.
=78	=78	=78	=78	=78	=78	=78	=78	=78	=78	=78	=78	=78	=78	=78	=78	=78
4.E\	6	.	.	.	.	.	.	.	8e\	-um	8g\	-um	.	.	2ryy	2ryy
.	.	.	.	.	.	.	.	.	8d\	Cum	8f#\	Cum	.	.	.	.
.	.	.	.	.	.	.	.	.	8c#\	.	8e\	.	.	.	.	.
8E#\	5	.	.	.	.	.	.	.	8B\	prin-	8d\	prin-	.	.	.	.
=79	=79	=79	=79	=79	=79	=79	=79	=79	=79	=79	=79	=79	=79	=79	=79	=79
!LO:SIC:v:s=4F#\	!	!	!	!	!	!	!	!	!	!	!	!	!	!	!	!
4F\	6 4	.	.	.	.	.	.	.	8.B\	-Ci-	8.d\	-ci-	.	.	2ryy	2ryy
.	.	.	.	.	.	.	.	.	16B\	-pi-	16d\	-pi-	.	.	.	.
!LO:SIC:v:s=4FF#/	!	!	!	!	!	!	!	!	!	!	!	!	!	!	!	!
4FF/	5 #	.	.	.	.	.	.	.	8A#X\	-buſ	8c#\	-buſ	.	.	.	.
.	.	.	.	.	.	.	.	.	8A#\	Cum	8c#\	Cum	.	.	.	.
!	!	!	!	!	!	!	!	!	!	!	!LO:LB:g=original	!	!	!	!	!
=80	=80	=80	=80	=80	=80	=80	=80	=80	=80	=80	=80	=80	=80	=80	=80	=80
!LO:SIC:v:s=2F#\	!	!	!	!	!	!	!	!	!	!	!	!	!	!	!	!
2F\	6 4	.	0r	.	1r	.	0r	.	8B\	prin-	8d\	prin-	.	.	2ryy	2ryy
.	5 #	.	.	.	.	.	.	.	8A#X\	-ci-	8c#\	-ci-	.	.	.	.
.	6 4	.	.	.	.	.	.	.	8B\	-pi-	8d\	-pi-	.	.	.	.
!	!	!	!	!	!	!	!	!	!LO:TX:b:i:t=Verte Subitto.	!	!	!	!	!	!	!
.	7 2	.	.	.	.	.	.	.	8G/	-buſ	8e\	-buſ	.	.	.	.
!	!	!	!	!	!	!	!	!	!LO:LB:g=original	!	!	!	!	!	!	!
=81	=81	=81	=81	=81	=81	=81	=81	=81	=81	=81	=81	=81	=81	=81	=81	=81
!LO:SIC:v:s=8F#\L	!	!	!	!	!	!	!	!	!	!	!	!	!	!	!	!
8F\L	8_ #	.	.	.	.	.	.	.	8A#X\	po-	8.f#\	po-	0r	.	2ryy	2ryy
!LO:SIC:v:s=16G#\L	!	!	!	!	!	!	!	!	!	!	!	!	!	!	!	!
16G\L	_ 3	.	.	.	.	.	.	.	16B\LL	-pu-	.	.	.	.	.	.
16A#X\JJ	5 3	.	.	.	.	.	.	.	16c#\JJ	.	16e\	-pu-	.	.	.	.
!LO:TX:t=P:problem=mixed beam	!	!	!	!	!	!	!	!	!	!	!	!	!	!	!	!
8B\L	3	.	.	.	.	.	.	.	8B\	-li	8d\	-li	.	.	.	.
8BB/J	.	.	.	.	.	.	.	.	8d\	po-	8f#\	po-	.	.	.	.
=82	=82	=82	=82	=82	=82	=82	=82	=82	=82	=82	=82	=82	=82	=82	=82	=82
!LO:TX:t=P:problem=mixed beam	!	!	!	!	!LO:TX:b:i:t=Verte Subitto	!	!	!	!	!	!	!	!	!	!	!
8E\L	6	.	.	.	2r	.	.	.	8c#\	-pu-	8e\	-pu-	.	.	2ryy	2ryy
8E\	.	.	.	.	.	.	.	.	16e\LL	-li	16g\LL	-li	.	.	.	.
.	.	.	.	.	.	.	.	.	16c#\JJ	.	16e\JJ	.	.	.	.	.
!LO:SIC:v:s=8F#\	!	!	!	!	!	!	!	!	!	!	!	!	!	!	!	!
8F\	4	.	.	.	.	.	.	.	8B\L	tu-	8d\L	tu-	.	.	.	.
!LO:SIC:v:s=8FF#/J	!	!	!	!	!	!	!	!	!	!	!	!	!	!	!	!
8FF/J	#	.	.	.	.	.	.	.	8A#X\J	.	8c#\J	.	.	.	.	.
!	!	!	!	!	!LO:PB:g=original	!	!	!	!	!	!	!	!	!	!	!
=83	=83	=83	=83	=83	=83	=83	=83	=83	=83	=83	=83	=83	=83	=83	=83	=83
!	!	!	!	!	!LO:TX:a:i:t=Solo	!	!	!	!	!	!	!	!	!	!	!
4BB/	.	.	.	.	8r	.	.	.	4B\	-i	4d\	-i	.	.	2ryy	2ryy
.	.	.	.	.	8bb\L	.	.	.	.	.	.	.	.	.	.	.
4r	.	.	.	.	8ff#\	.	.	.	4r	.	4r	.	.	.	.	.
.	.	.	.	.	8gg\J	.	.	.	.	.	.	.	.	.	.	.
!LO:LB:g=original	!	!	!	!	!	!	!	!	!	!	!	!	!	!	!	!
=84	=84	=84	=84	=84	=84	=84	=84	=84	=84	=84	=84	=84	=84	=84	=84	=84
!	!	!	!LO:TX:a:i:t=Solo	!	!	!	!	!	!LO:TX:a:t=3	!	!LO:TX:a:t=3	!	!	!	!	!
2r	.	.	8r	.	4.dd\	.	1r	.	1r	.	1r	.	.	.	2ryy	2ryy
.	.	.	8b/L	.	.	.	.	.	.	.	.	.	.	.	.	.
.	.	.	8f#/	.	.	.	.	.	.	.	.	.	.	.	.	.
.	.	.	8g/J	.	8ee\	.	.	.	.	.	.	.	.	.	.	.
=85	=85	=85	=85	=85	=85	=85	=85	=85	=85	=85	=85	=85	=85	=85	=85	=85
8r	.	.	4.d/	.	8ff#\L	.	.	.	.	.	.	.	1r	.	2ryy	2ryy
8B\L	.	.	.	.	8dd\J	.	.	.	.	.	.	.	.	.	.	.
!LO:SIC:v:s=8F#\	!	!	!	!	!	!	!	!	!	!	!	!	!	!	!	!
8F\	6 4_	.	.	.	[y4b\	.	.	.	.	.	.	.	.	.	.	.
8G\J	6 _	.	8e/	.	.	.	.	.	.	.	.	.	.	.	.	.
=86	=86	=86	=86	=86	=86	=86	=86	=86	=86	=86	=86	=86	=86	=86	=86	=86
!LO:TX:t=P:problem=mixed beam	!	!	!	!	!LO:N:xstem:cue	!	!LO:TX:b:i:t=Wolti Subitto.	!	!	!	!	!	!	!	!	!
8D\L	6	.	8f#/L	.	8b\]	.	2r	.	2r	.	2r	.	.	.	2ryy	2ryy
8E\	6	.	8g/J	.	8cc#\L	.	.	.	.	.	.	.	.	.	.	.
!LO:SIC:v:s=8F#\	!	!	!	!	!	!	!	!	!	!	!	!	!	!	!	!
8F\	4	.	4c#/	.	8b\	.	.	.	.	.	.	.	.	.	.	.
!LO:SIC:v:s=8FF#/J	!	!	!	!	!	!	!	!	!	!	!	!	!	!	!	!
8FF/J	#	.	.	.	8a#X\J	.	.	.	.	.	.	.	.	.	.	.
!	!	!	!	!	!	!	!LO:PB:g=original	!	!	!	!LO:LB:g=original	!	!	!	!	!
=87	=87	=87	=87	=87	=87	=87	=87	=87	=87	=87	=87	=87	=87	=87	=87	=87
!LO:TX:t=P:problem=mixed beam	!	!	!	!	!	!	!	!	!	!	!	!	!	!	!	!
8BB/L	.	.	16d/LL	.	8b\L	.	4B\	qui	4f#\	Qui	4b\	Qui	4dd\	Qui	2ryy	2ryy
.	.	.	16f#/	.	.	.	.	.	.	.	.	.	.	.	.	.
8B\	.	.	16d/	.	8dd\J	.	.	.	.	.	.	.	.	.	.	.
.	.	.	16f#/JJ	.	.	.	.	.	.	.	.	.	.	.	.	.
*	*	*	*rep	*	*	*	*	*	*	*	*	*	*	*	*	*
8B\	.	.	16d/LL	.	[y4ff#\	.	8B\	ha-	8f#\	ha-	8b\	ha-	8dd\	ha-	.	.
.	.	.	16f#/	.	.	.	.	.	.	.	.	.	.	.	.	.
8B\J	.	.	16d/	.	.	.	8B\	-bi-	8f#\	-bi-	8b\	-bi-	8dd\	-bi-	.	.
.	.	.	16f#/JJ	.	.	.	.	.	.	.	.	.	.	.	.	.
*	*	*	*Xrep	*	*	*	*	*	*	*	*	*	*	*	*	*
!	!	!	!	!	!	!	!	!	!	!	!	!	!LO:LB:g=original	!	!	!
=88	=88	=88	=88	=88	=88	=88	=88	=88	=88	=88	=88	=88	=88	=88	=88	=88
*tremolo	*	*	*tremolo	*	*	*	*	*	*	*	*	*	*	*	*	*
!	!	!	!	!	!LO:N:xstem:cue	!	!	!	!	!	!	!	!	!	!	!
8B\L	.	.	16d/LL	.	8ff#\]	.	4B\	-ta-	4f#\	-ta-	4b\	-ta-	4dd\	-ta-	2ryy	2ryy
.	.	.	16f#/	.	.	.	.	.	.	.	.	.	.	.	.	.
8B\	.	.	16d/	.	16gg\LL	.	.	.	.	.	.	.	.	.	.	.
.	.	.	16f#/	.	16ff#\JJ	.	.	.	.	.	.	.	.	.	.	.
8B\	.	.	16d/	.	8ee\L	.	4B\	-re	4f#\	-re	4b\	-re	4dd\	-re	.	.
.	.	.	16f#/	.	.	.	.	.	.	.	.	.	.	.	.	.
8B\J	.	.	16d/	.	8dd\J	.	.	.	.	.	.	.	.	.	.	.
.	.	.	16f#/JJ	.	.	.	.	.	.	.	.	.	.	.	.	.
!	!	!	!	!	!	!	!	!	!LO:LB:g=original	!	!	!	!	!	!	!
=89	=89	=89	=89	=89	=89	=89	=89	=89	=89	=89	=89	=89	=89	=89	=89	=89
!	!	!	!	!	!LO:TX:t=P:problem=mixed beam	!	!	!	!	!	!	!	!	!	!	!
8A#X\L	6_ 5_	.	16c#/LL	.	8cc#\L	.	8A#X\	fa-	8f#\	fa-	8cc#\	fa-	8ee\	fa-	2ryy	2ryy
.	.	.	16f#/	.	.	.	.	.	.	.	.	.	.	.	.	.
8A#\	.	.	16c#/	.	8f#/J	.	8A#\	-cit	8f#\	-cit	8cc#\	-cit	8ee\	-cit	.	.
.	.	.	16f#/	.	.	.	.	.	.	.	.	.	.	.	.	.
8A#\	.	.	16c#/	.	[y4ee\	.	8A#\	ſte-	8f#\	ſte-	8cc#\	ſte-	8ee\	ſte-	.	.
.	.	.	16f#/	.	.	.	.	.	.	.	.	.	.	.	.	.
8A#\J	.	.	16c#/	.	.	.	8A#\	-ri-	8f#\	-ri-	8cc#\	-ri-	8ee\	-ri-	.	.
.	.	.	16f#/JJ	.	.	.	.	.	.	.	.	.	.	.	.	.
=90	=90	=90	=90	=90	=90	=90	=90	=90	=90	=90	=90	=90	=90	=90	=90	=90
!LO:SIC:v:s=8A#\L	!	!	!	!	!LO:N:xstem:cue	!	!LO:SIC:v:s=8A#\	!	!	!	!	!	!	!	!	!
8A\L	.	.	16c#/LL	.	8ee\]	.	8A\	-lem	8f#\	-lem	8cc#\	-lem	8ee\	-lem	2ryy	2ryy
.	.	.	16f#/	.	.	.	.	.	.	.	.	.	.	.	.	.
!LO:SIC:v:s=8A#\	!	!	!	!	!	!	!LO:SIC:v:s=8A#\	!	!	!	!	!	!	!	!	!
8A\	.	.	16c#/	.	16dd\LL	.	8A\	in	8f#\	in	8cc#\	in	8ee\	in	.	.
.	.	.	16f#/	.	16cc#\JJ	.	.	.	.	.	.	.	.	.	.	.
!LO:SIC:v:s=8A#\	!	!	!	!	!	!	!LO:SIC:v:s=4A#\	!	!	!	!	!	!	!	!	!
8A\	.	.	16c#/	.	8ff#\L	.	4A\	Do-	4f#\	Do-	4cc#\	Do-	4ee\	Do-	.	.
.	.	.	16f#/	.	.	.	.	.	.	.	.	.	.	.	.	.
!LO:SIC:v:s=8A#\J	!	!	!	!	!	!	!	!	!	!	!	!	!	!	!	!
8A\J	.	.	16c#/	.	8ee\J	.	.	.	.	.	.	.	.	.	.	.
.	.	.	16f#/JJ	.	.	.	.	.	.	.	.	.	.	.	.	.
*Xtremolo	*	*	*Xtremolo	*	*	*	*	*	*	*	*	*	*	*	*	*
!	!	!	!	!	!LO:LB:g=original	!	!	!	!	!	!	!	!	!	!	!
=91	=91	=91	=91	=91	=91	=91	=91	=91	=91	=91	=91	=91	=91	=91	=91	=91
4B\	x	.	4f#/	.	4dd\	.	4B\	-mo	4f#\	-mo	4b\	-mo	4dd\	-mo	2ryy	2ryy
4r	.	.	4A#X/	.	8ff#\L	.	4r	.	4r	.	4r	.	8ff#\	ma-	.	.
.	.	.	.	.	8dd\J	.	.	.	.	.	.	.	8ee\	-trem	.	.
=92	=92	=92	=92	=92	=92	=92	=92	=92	=92	=92	=92	=92	=92	=92	=92	=92
4r	.	.	4B/	.	8dd\L	.	4r	.	1r	.	2r	.	8dd\	fi-	2ryy	2ryy
.	.	.	.	.	16cc#\L	.	.	.	.	.	.	.	16cc#\LL	-li-	.	.
.	.	.	.	.	16b\JJ	.	.	.	.	.	.	.	16b\JJ	.	.	.
!LO:SIC:v:s=8F#\L	!	!	!	!	!	!	!	!	!	!	!	!	!	!	!	!
8F\L	#_	.	4c#/	.	4a#X/	.	8F#\	ma-	.	.	.	.	4a#X\	-o-	.	.
8E\J	.	.	.	.	.	.	8E\	-trem	.	.	.	.	.	.	.	.
!	!	!	!	!	!	!	!LO:LB:g=original	!	!	!	!LO:LB:g=original	!	!	!	!	!
=93	=93	=93	=93	=93	=93	=93	=93	=93	=93	=93	=93	=93	=93	=93	=93	=93
8D/L	6	.	4d/	.	8b\L	.	8D/	fi-	.	.	4r	.	8b\	-rum	2ryy	2ryy
!LO:SIC:v:s=16C#/L	!	!	!	!	!	!	!	!	!	!	!	!	!	!	!	!
16C/L	.	.	.	.	8dd\	.	16C#/LL	-li-	.	.	.	.	8dd\	le-	.	.
16BB/JJ	.	.	.	.	.	.	16BB/JJ	.	.	.	.	.	.	.	.	.
!	!	!	!	!	!	!	!	!	!	!	!	!	!LO:LB:g=original	!	!	!
4AA#X/	6 5	.	8f#/L	.	8cc#\	.	4AA#X/	-o-	.	.	8f#\	Ma-	8cc#\L	-tan-	.	.
.	.	.	8e/J	.	8ff#\J	.	.	.	.	.	8e\	-term	8ff#\J	.	.	.
=94	=94	=94	=94	=94	=94	=94	=94	=94	=94	=94	=94	=94	=94	=94	=94	=94
8BB\L	.	.	8d/L	.	4dd\	.	8BB\L	.	4r	.	8d\	fi-	4dd\	.	2ryy	2ryy
8D\	6\_ 3_	.	16c#/L	.	.	.	8D\	.	.	.	16c#/LL	-li-	.	.	.	.
.	.	.	16B/JJ	.	.	.	.	.	.	.	16B/JJ	.	.	.	.	.
!LO:SIC:v:s=8C#\	!	!	!	!	!	!	!	!	!	!	!	!	!	!	!	!
8C\	.	.	4A#X/	.	4ee\	.	8C#\	.	8f#\	fi-	4A#X/	-o-	4cc#\	.	.	.
!LO:SIC:v:s=8F#\J	!	!	!	!	!	!	!	!	!	!	!	!	!	!	!	!
8F\J	.	.	.	.	.	.	8F#\J	.	8e\	-li-	.	.	.	.	.	.
!	!	!	!LO:LB:g=original	!	!	!	!	!	!	!	!	!	!	!	!	!
=95	=95	=95	=95	=95	=95	=95	=95	=95	=95	=95	=95	=95	=95	=95	=95	=95
8D/L	6	.	4.B/	.	4.dd\	.	8D\	.	4d\	-o-	4B/	-rum	4dd\	-tem	2ryy	2ryy
8BB/J	.	.	.	.	.	.	8BB/	-rum	.	.	.	.	.	.	.	.
4G\	.	.	.	.	.	.	4G\	le-	8g\	-rum	4b\	le-	4dd\	le-	.	.
.	.	.	8dd\	.	8bb\	.	.	.	8g\	le-	.	.	.	.	.	.
!LO:LB:g=original	!	!	!	!	!	!	!	!	!LO:LB:g=original	!	!	!	!	!	!	!
=96	=96	=96	=96	=96	=96	=96	=96	=96	=96	=96	=96	=96	=96	=96	=96	=96
!	!	!	!	!	!	!	!	!	!	!	!	!	!LO:SIC:v:l:s=-tan-	!	!	!
4E\	6 5	.	8cc#\L	.	8cc#\L	.	4E\	-tan-	4g\	-tan-	4b\	-tan-	2cc#\	-tam-	2ryy	2ryy
.	.	.	8bb\	.	8bb\	.	.	.	.	.	.	.	.	.	.	.
!LO:SIC:v:s=4F#\	!	!	!	!	!	!	!	!	!	!	!	!	!	!	!	!
4F\	#	.	8cc#\	.	8cc#\	.	4F#\	.	4f#\	.	4a#X\	.	.	.	.	.
.	.	.	8aa#X\J	.	8aa#X\J	.	.	.	.	.	.	.	.	.	.	.
=97	=97	=97	=97	=97	=97	=97	=97	=97	=97	=97	=97	=97	=97	=97	=97	=97
4BB/	.	.	8bb\L	.	8bb\L	.	4BB/	-tem	4f#\	-tem	4b\	-tem	4dd\	-tem	2ryy	2ryy
!	!	!	!LO:TX:a:i:t=Solo.	!	!	!	!	!	!	!	!	!	!	!	!	!
.	.	.	16dd\L	.	16ff#\L	.	.	.	.	.	.	.	.	.	.	.
.	.	.	16ee\JJ	.	16gg\JJ	.	.	.	.	.	.	.	.	.	.	.
4r	.	.	8dd\L	.	8ff#\L	.	4r	.	4r	.	4r	.	4r	.	.	.
.	.	.	8cc#\J	.	8ee\J	.	.	.	.	.	.	.	.	.	.	.
=98	=98	=98	=98	=98	=98	=98	=98	=98	=98	=98	=98	=98	=98	=98	=98	=98
!LO:TX:a:i:t=Solo	!	!	!	!	!	!	!	!	!	!	!LO:TX:a:t=3	!	!LO:TX:a:t=3	!	!	!
8r	.	.	4b/	.	4dd\	.	0r	.	0r	.	1r	.	1r	.	2ryy	2ryy
8BB\L	.	.	.	.	.	.	.	.	.	.	.	.	.	.	.	.
!LO:SIC:v:s=8F#\	!	!	!	!	!	!	!	!	!	!	!	!	!	!	!	!
8F\	#	.	4a#X/	.	4cc#\	.	.	.	.	.	.	.	.	.	.	.
8E\J	.	.	.	.	.	.	.	.	.	.	.	.	.	.	.	.
=99	=99	=99	=99	=99	=99	=99	=99	=99	=99	=99	=99	=99	=99	=99	=99	=99
4D/	6 3	.	4f#/	.	4.b\	.	.	.	.	.	.	.	.	.	2ryy	2ryy
!LO:SIC:v:s=4C#/	!	!	!	!	!	!	!	!	!	!	!	!	!	!	!	!
4C/	5 3	.	4e/	.	.	.	.	.	.	.	.	.	.	.	.	.
.	6\	.	.	.	8a#X/	.	.	.	.	.	.	.	.	.	.	.
!	!	!	!	!	!LO:LB:g=original	!	!	!	!	!	!	!	!	!	!	!
=100	=100	=100	=100	=100	=100	=100	=100	=100	=100	=100	=100	=100	=100	=100	=100	=100
8BB\L	.	.	8d/	.	8b\L	.	.	.	.	.	2r	.	2r	.	2ryy	2ryy
8G\	.	.	4b\	.	8dd\J	.	.	.	.	.	.	.	.	.	.	.
8E\	6 5	.	.	.	8.cc#\L	.	.	.	.	.	.	.	.	.	.	.
!LO:SIC:v:s=8F#\J	!	!	!	!	!	!	!	!	!	!	!	!	!	!	!	!
8F\J	#	.	8a#X\	.	.	.	.	.	.	.	.	.	.	.	.	.
.	.	.	.	.	32b\LL	.	.	.	.	.	.	.	.	.	.	.
.	.	.	.	.	32cc#\JJJ	.	.	.	.	.	.	.	.	.	.	.
=101	=101	=101	=101	=101	=101	=101	=101	=101	=101	=101	=101	=101	=101	=101	=101	=101
!	!	!	!LO:TX:t=P:problem=mixed beam	!	!	!	!	!	!	!	!LO:TX:a:i:t=Solo	!	!LO:TX:a:i:t=Solo:rj	!	!	!
4B\	.	.	8b\L	.	8dd\	.	.	.	.	.	8r	.	4.ff#\	Glo-	2ryy	2ryy
.	.	.	8d/	.	4ff#\	.	.	.	.	.	8d\	Glo-	.	.	.	.
4A#X\	6 5	.	8c#/	.	.	.	.	.	.	.	8c#\	-ri-	.	.	.	.
.	.	.	8c#/J	.	8ee\	.	.	.	.	.	8c#\	-a	8ee\	.	.	.
!	!	!	!	!	!	!	!	!	!	!	!LO:LB:g=original	!	!	!	!	!
=102	=102	=102	=102	=102	=102	=102	=102	=102	=102	=102	=102	=102	=102	=102	=102	=102
4B\	.	.	4.f#/	.	8dd\L	.	0r	.	0r	.	4.f#\	pa-	8dd\	.	2ryy	2ryy
.	.	.	.	.	16ee\L	.	.	.	.	.	.	.	16ee\LL	-ri-	.	.
.	.	.	.	.	16dd\JJ	.	.	.	.	.	.	.	16dd\JJ	.	.	.
4A#X\	6 5	.	.	.	8cc#\L	.	.	.	.	.	.	.	8cc#\	-a	.	.
.	.	.	8e/	.	8cc#\J	.	.	.	.	.	8e\	.	8cc#\	pa-	.	.
!	!	!	!	!	!	!	!	!	!	!	!	!	!LO:LB:g=original	!	!	!
=103	=103	=103	=103	=103	=103	=103	=103	=103	=103	=103	=103	=103	=103	=103	=103	=103
4B\	.	.	8d/L	.	4.ff#\	.	.	.	.	.	8d\	-tri	4.ff#\	-tri	2ryy	2ryy
.	.	.	16e/L	.	.	.	.	.	.	.	16e\LL	Glo-	.	.	.	.
.	.	.	16d/JJ	.	.	.	.	.	.	.	16d\JJ	.	.	.	.	.
4A#X\	6 5	.	8c#/L	.	.	.	.	.	.	.	8c#\	-ri-	.	.	.	.
.	.	.	8c#/J	.	8ee\	.	.	.	.	.	8c#\	-a	8ee\	(et)	.	.
=104	=104	=104	=104	=104	=104	=104	=104	=104	=104	=104	=104	=104	=104	=104	=104	=104
4B\	.	.	4.f#/	.	8dd\L	.	.	.	.	.	4.f#\	fi-	8dd\L	fi-	2ryy	2ryy
.	.	.	.	.	16ee\L	.	.	.	.	.	.	.	16ee\L	.	.	.
.	.	.	.	.	16dd\JJ	.	.	.	.	.	.	.	16dd\JJ	.	.	.
4A#X\	6 5	.	.	.	8cc#\L	.	.	.	.	.	.	.	8cc#\	.	.	.
.	.	.	8e/	.	8cc#\J	.	.	.	.	.	8e\	-li-	8cc#\	-li-	.	.
=105	=105	=105	=105	=105	=105	=105	=105	=105	=105	=105	=105	=105	=105	=105	=105	=105
!LO:TX:t=P:problem=mixed beam	!	!	!	!	!	!	!	!	!	!	!	!	!	!	!	!
8B\L	.	.	8d/	.	8b\	.	.	.	.	.	8d\	-o	8b\	-o	2ryy	2ryy
8BB/J	.	.	8r	.	8r	.	.	.	.	.	8r	.	8r	.	.	.
4r	.	.	16b\LL	.	16dd\LL	.	.	.	.	.	16b\LL	(et)	16dd\LL	(et)	.	.
.	.	.	16a#X\	.	16cc#\	.	.	.	.	.	16a#X\JJ	.	16cc#\JJ	.	.	.
.	.	.	16b\	.	16dd\	.	.	.	.	.	16b\LL	Spi-	16dd\LL	ſpi-	.	.
.	.	.	16cc#\JJ	.	16ee\JJ	.	.	.	.	.	16cc#\JJ	.	16ee\JJ	-ri-	.	.
!	!	!	!LO:LB:g=original	!	!	!	!	!	!	!	!	!	!	!	!	!
=106	=106	=106	=106	=106	=106	=106	=106	=106	=106	=106	=106	=106	=106	=106	=106	=106
8r	.	.	4.dd\	.	4.ff#\	.	0r	.	0r	.	4.dd\	-ri-	4.ff#\	.	2ryy	2ryy
16BB/LL	.	.	.	.	.	.	.	.	.	.	.	.	.	.	.	.
16AA#X\JJ	.	.	.	.	.	.	.	.	.	.	.	.	.	.	.	.
!LO:TX:t=P:problem=mixed beam	!	!	!	!	!	!	!	!	!	!	!	!	!	!	!	!
8BB/L	.	.	.	.	.	.	.	.	.	.	.	.	.	.	.	.
8B\J	.	.	16cc#\LL	.	16ee\LL	.	.	.	.	.	16cc#\LL	.	16ee\LL	.	.	.
.	.	.	16b\JJ	.	16dd\JJ	.	.	.	.	.	16b\JJ	.	16dd\JJ	.	.	.
!	!	!	!	!	!LO:LB:g=original	!	!	!	!	!	!LO:LB:g=original	!	!	!	!	!
=107	=107	=107	=107	=107	=107	=107	=107	=107	=107	=107	=107	=107	=107	=107	=107	=107
!LO:TX:t=P:problem=mixed beam	!	!	!	!	!	!	!	!	!	!	!	!	!	!	!	!
8E\L	6_	.	16cc#\LL	.	16ee\LL	.	.	.	.	.	16cc#\LL	-tu-	16ee\LL	-tu-	2ryy	2ryy
.	.	.	16dd\	.	16ff#\	.	.	.	.	.	16dd\JJ	.	16ff#\JJ	.	.	.
8E\	.	.	16ee\	.	16gg\	.	.	.	.	.	16ee\LL	-i	16gg\LL	-i	.	.
.	.	.	16cc#\JJ	.	16ee\JJ	.	.	.	.	.	16dd\JJ	.	16ee\JJ	.	.	.
!LO:SIC:v:s=8F#\	!	!	!	!	!	!	!	!	!	!	!	!	!	!	!	!
8F\	6 4	.	8b\L	.	8dd\L	.	.	.	.	.	8b\L	San-	8dd\L	San-	.	.
!LO:SIC:v:s=8FF#/J	!	!	!	!	!	!	!	!	!	!	!	!	!	!	!	!
8FF/J	5 #	.	8a#X\J	.	8cc#\J	.	.	.	.	.	8a#X\J	.	8cc#\J	.	.	.
!LO:LB:g=original	!	!	!	!	!	!	!	!	!	!	!	!	!LO:LB:g=original	!	!	!
=108	=108	=108	=108	=108	=108	=108	=108	=108	=108	=108	=108	=108	=108	=108	=108	=108
!	!	!	!	!	!LO:TX:a:i:t=Solo	!	!	!	!	!	!	!	!	!	!	!
4BB/	.	.	4b\	.	8dd\L	.	.	.	.	.	4b\	-cto	4dd\	-cto	2ryy	2ryy
.	.	.	.	.	8bb\	.	.	.	.	.	.	.	.	.	.	.
4r	.	.	4r	.	8ff#\	.	.	.	.	.	4r	.	4r	.	.	.
.	.	.	.	.	8gg\J	.	.	.	.	.	.	.	.	.	.	.
=109	=109	=109	=109	=109	=109	=109	=109	=109	=109	=109	=109	=109	=109	=109	=109	=109
!	!	!	!LO:TX:a:i:t=Solo:rj	!	!	!	!	!	!	!	!LO:TX:a:t=3	!	!LO:TX:a:t=3	!	!	!
2r	.	.	8r	.	4.dd\	.	.	.	.	.	1r	.	1r	.	2ryy	2ryy
.	.	.	8b/L	.	.	.	.	.	.	.	.	.	.	.	.	.
.	.	.	8f#/	.	.	.	.	.	.	.	.	.	.	.	.	.
.	.	.	8g/J	.	8ee\	.	.	.	.	.	.	.	.	.	.	.
=110	=110	=110	=110	=110	=110	=110	=110	=110	=110	=110	=110	=110	=110	=110	=110	=110
8r	.	.	4.d/	.	8ff#\L	.	1r	.	1r	.	.	.	.	.	2ryy	2ryy
8B\L	.	.	.	.	8dd\J	.	.	.	.	.	.	.	.	.	.	.
!LO:SIC:v:s=8F#\	!	!	!	!	!	!	!	!	!	!	!	!	!	!	!	!
8F\	6 4	.	.	.	[y4b\	.	.	.	.	.	.	.	.	.	.	.
8G\J	6 3	.	8e/	.	.	.	.	.	.	.	.	.	.	.	.	.
=111	=111	=111	=111	=111	=111	=111	=111	=111	=111	=111	=111	=111	=111	=111	=111	=111
!LO:TX:t=P:problem=mixed beam	!	!	!	!	!LO:N:xstem:cue	!	!	!	!	!	!	!	!	!	!	!
8D\L	6	.	8f#/L	.	8b\]	.	.	.	.	.	2r	.	2r	.	2ryy	2ryy
8E\	6	.	8g/J	.	8cc#\L	.	.	.	.	.	.	.	.	.	.	.
!LO:SIC:v:s=8F#\	!	!	!	!	!	!	!	!	!	!	!	!	!	!	!	!
8F\	4	.	4c#/	.	8b\	.	.	.	.	.	.	.	.	.	.	.
!LO:SIC:v:s=8FF#/J	!	!	!	!	!	!	!	!	!	!	!	!	!	!	!	!
8FF/J	#	.	.	.	8a#X\J	.	.	.	.	.	.	.	.	.	.	.
=112	=112	=112	=112	=112	=112	=112	=112	=112	=112	=112	=112	=112	=112	=112	=112	=112
!LO:TX:a:i:t=tutti	!	!	!	!	!	!	!	!	!	!	!	!	!	!	!	!
!LO:TX:t=P:problem=mixed beam	!	!	!	!	!	!	!	!	!	!	!	!	!	!	!	!
8BB/L	.	.	16d/LL	.	8.b\L	.	4B\	Si-	4f#\	Si-	4b\	Si-	4dd\	Si-	2ryy	2ryy
.	.	.	16f#/	.	.	.	.	.	.	.	.	.	.	.	.	.
8B\	.	.	16d/	.	.	.	.	.	.	.	.	.	.	.	.	.
.	.	.	16f#/JJ	.	32dd\LL	.	.	.	.	.	.	.	.	.	.	.
.	.	.	.	.	32ee\JJJ	.	.	.	.	.	.	.	.	.	.	.
*	*	*	*rep	*	*	*	*	*	*	*	*	*	*	*	*	*
8B\	.	.	16d/LL	.	8ff#\L	.	4B\	-cut	4f#\	-cut	4b\	-cut	4dd\	-cut	.	.
.	.	.	16f#/	.	.	.	.	.	.	.	.	.	.	.	.	.
8B\J	.	.	16d/	.	8ff#\J	.	.	.	.	.	.	.	.	.	.	.
.	.	.	16f#/JJ	.	.	.	.	.	.	.	.	.	.	.	.	.
*	*	*	*Xrep	*	*	*	*	*	*	*	*	*	*	*	*	*
!	!	!	!	!	!	!	!LO:LB:g=original	!	!	!	!	!	!	!	!	!
=113	=113	=113	=113	=113	=113	=113	=113	=113	=113	=113	=113	=113	=113	=113	=113	=113
*tremolo	*	*	*tremolo	*	*	*	*	*	*	*	*	*	*	*	*	*
8B\L	.	.	16d/LL	.	8.ff#\L	.	4B\	e-	4f#\	e-	4b\	e-	4dd\	e-	2ryy	2ryy
.	.	.	16f#/	.	.	.	.	.	.	.	.	.	.	.	.	.
8B\	.	.	16d/	.	.	.	.	.	.	.	.	.	.	.	.	.
.	.	.	16f#/	.	32ee\LL	.	.	.	.	.	.	.	.	.	.	.
.	.	.	.	.	32ff#\JJJ	.	.	.	.	.	.	.	.	.	.	.
8B\	.	.	16d/	.	16gg\LL	.	4B\	-rat	4f#\	-rat	4b\	-rat	4dd\	-rat	.	.
.	.	.	16f#/	.	16ff#\	.	.	.	.	.	.	.	.	.	.	.
8B\J	.	.	16d/	.	16ee\	.	.	.	.	.	.	.	.	.	.	.
.	.	.	16f#/JJ	.	16dd\JJ	.	.	.	.	.	.	.	.	.	.	.
!	!	!	!	!	!LO:LB:g=original	!	!	!	!	!	!	!	!	!	!	!
=114	=114	=114	=114	=114	=114	=114	=114	=114	=114	=114	=114	=114	=114	=114	=114	=114
8A#X\L	6 5	.	16c#/LL	.	8.cc#\L	.	4A#X\	in	4f#\	in	4cc#\	in	4ee\	in	2ryy	2ryy
.	.	.	16f#/	.	.	.	.	.	.	.	.	.	.	.	.	.
8A#\	.	.	16c#/	.	.	.	.	.	.	.	.	.	.	.	.	.
.	.	.	16f#/	.	16dd\Jk	.	.	.	.	.	.	.	.	.	.	.
8A#\	.	.	16c#/	.	8ee\L	.	4A#\	prin-	4f#\	prin-	4cc#\	prin-	4ee\	prin-	.	.
.	.	.	16f#/	.	.	.	.	.	.	.	.	.	.	.	.	.
8A#\J	.	.	16c#/	.	8ee\J	.	.	.	.	.	.	.	.	.	.	.
.	.	.	16f#/JJ	.	.	.	.	.	.	.	.	.	.	.	.	.
*Xtremolo	*	*	*	*	*	*	*	*	*	*	*	*	*	*	*	*
=115	=115	=115	=115	=115	=115	=115	=115	=115	=115	=115	=115	=115	=115	=115	=115	=115
!	!	!	!	!	!	!	!LO:SIC:v:s=4A#\	!	!	!	!	!	!	!	!	!
8A#X\L	6_ 5_	.	16c#/LL	.	8.ee\L	.	4A\	-ci-	4f#\	-ci-	4cc#\	-ci-	4ee\	-ci-	2ryy	2ryy
.	.	.	16f#/	.	.	.	.	.	.	.	.	.	.	.	.	.
8A#\	.	.	16c#/	.	.	.	.	.	.	.	.	.	.	.	.	.
.	.	.	16f#/	.	32dd\LL	.	.	.	.	.	.	.	.	.	.	.
.	.	.	.	.	32ee\JJJ	.	.	.	.	.	.	.	.	.	.	.
!	!	!	!	!	!	!	!LO:SIC:v:s=4A#\	!	!	!	!LO:TX:b:i:t=Verte	!	!	!	!	!
8A#\	.	.	16c#/	.	16ff#\LL	.	4A\	-pi-	4f#\	-pi-	4cc#\	-pi-	4ee\	-pi-	.	.
.	.	.	16f#/	.	16ee\	.	.	.	.	.	.	.	.	.	.	.
8A#\J	.	.	16c#/	.	16dd\	.	.	.	.	.	.	.	.	.	.	.
.	.	.	16f#/JJ	.	16cc#\JJ	.	.	.	.	.	.	.	.	.	.	.
!	!	!	!	!	!	!	!	!	!	!	!LO:PB:g=original	!	!	!	!	!
=116	=116	=116	=116	=116	=116	=116	=116	=116	=116	=116	=116	=116	=116	=116	=116	=116
*tremolo	*	*	*	*	*	*	*	*	*	*	*	*	*	*	*	*
8B\L	x	.	16d/LL	.	8.dd\L	.	4B\	-o	4f#\	-o	4b\	-o	4dd\	-o	2ryy	2ryy
.	.	.	16f#/	.	.	.	.	.	.	.	.	.	.	.	.	.
8B\	.	.	16d/	.	.	.	.	.	.	.	.	.	.	.	.	.
.	.	.	16f#/	.	16ee\Jk	.	.	.	.	.	.	.	.	.	.	.
8B\	.	.	16d/	.	8ff#\L	.	4B\	et	4B\	et	4f#\	et	4dd\	et	.	.
.	.	.	16f#/	.	.	.	.	.	.	.	.	.	.	.	.	.
8B\J	.	.	16d/	.	8ff#\J	.	.	.	.	.	.	.	.	.	.	.
.	.	.	16f#/JJ	.	.	.	.	.	.	.	.	.	.	.	.	.
*Xtremolo	*	*	*Xtremolo	*	*	*	*	*	*	*	*	*	*	*	*	*
!	!	!	!	!	!	!	!	!	!LO:LB:g=original	!	!	!	!	!	!	!
=117	=117	=117	=117	=117	=117	=117	=117	=117	=117	=117	=117	=117	=117	=117	=117	=117
8B\L	.	.	16d/LL	.	8.ff#\L	.	4B\	nunc	4B\	nunc	4f#\	nunc	4dd\	nunc	2ryy	2ryy
.	.	.	16f#/	.	.	.	.	.	.	.	.	.	.	.	.	.
8B\	.	.	16d/	.	.	.	.	.	.	.	.	.	.	.	.	.
.	.	.	16f#/JJ	.	16dd\Jk	.	.	.	.	.	.	.	.	.	.	.
8B\	6_ 4_	.	16e/LL	.	8bb\L	.	4B\	(et)	4B\	et	4g\	(et)	4ee\	et	.	.
.	.	.	16g/	.	.	.	.	.	.	.	.	.	.	.	.	.
8B\J	.	.	16f#/	.	16aa\L	.	.	.	.	.	.	.	.	.	.	.
.	.	.	16e/JJ	.	16gg\JJ	.	.	.	.	.	.	.	.	.	.	.
!	!	!	!LO:LB:g=original	!	!	!	!	!	!	!	!	!	!LO:LB:g=original	!	!	!
=118	=118	=118	=118	=118	=118	=118	=118	=118	=118	=118	=118	=118	=118	=118	=118	=118
8B\L	5 3	.	16d/LL	.	8.ff#\L	.	4B\	nunc	4B\	nunc	8f#\L	nunc	4dd\	nunc	2ryy	2ryy
.	.	.	16f#/	.	.	.	.	.	.	.	.	.	.	.	.	.
8B\	.	.	16b/	.	.	.	.	.	.	.	8b\J	.	.	.	.	.
.	.	.	16dd/JJ	.	32gg\LL	.	.	.	.	.	.	.	.	.	.	.
.	.	.	.	.	32ff#\JJJ	.	.	.	.	.	.	.	.	.	.	.
8E\	6	.	8cc#\L	.	8ee\L	.	8E\L	(et)	4g\	et	8cc#\L	et	8ee\L	et	.	.
8E#X\J	5	.	8b\J	.	8dd\J	.	8E#X\J	.	.	.	8b\J	.	8dd\J	.	.	.
=119	=119	=119	=119	=119	=119	=119	=119	=119	=119	=119	=119	=119	=119	=119	=119	=119
!LO:SIC:v:s=8F#\L	!	!	!	!	!	!	!	!	!	!	!	!	!	!	!	!
!LO:TX:t=P:problem=mixed beam	!	!	!	!	!	!	!	!	!	!	!	!	!	!	!	!
8F\L	6 4	.	8.b/L	.	8.dd\L	.	4F#\	Sem-	4f#\	Sem-	4b\	Sem-	4dd\	Sem-	2ryy	2ryy
!LO:SIC:v:s=8F#\	!	!	!	!	!	!	!	!	!	!	!	!	!	!	!	!
8F\	.	.	.	.	.	.	.	.	.	.	.	.	.	.	.	.
.	.	.	32a#X/LL	.	32cc#\LL	.	.	.	.	.	.	.	.	.	.	.
.	.	.	32b/JJJ	.	32dd\JJJ	.	.	.	.	.	.	.	.	.	.	.
!LO:SIC:v:s=8FF#/J	!	!	!	!	!	!	!	!	!	!	!	!	!	!	!	!
8FF/J	5 #	.	16a#/LL	.	16cc#\LL	.	8F#\	-per	8f#\	-per	8a#X\	-per	8cc#\	-per	.	.
.	.	.	16f#/	.	16a#X\	.	.	.	.	.	.	.	.	.	.	.
8r	.	.	16a#/	.	16cc#\	.	8r	.	8r	.	8r	.	8r	.	.	.
.	.	.	16b/JJ	.	16ff#\JJ	.	.	.	.	.	.	.	.	.	.	.
!LO:LB:g=original	!	!	!	!	!	!	!	!LO:LB:g=original	!	!	!	!	!	!	!	!
=120	=120	=120	=120	=120	=120	=120	=120	=120	=120	=120	=120	=120	=120	=120	=120	=120
8r	.	.	8cc#\	.	8aa#X\	.	8r	.	8r	.	8r	.	8r	.	2ryy	2ryy
8G\L	7_ 4_ #2r_	.	4a#/	.	4cc#\	.	8G\L	(et)	4f#\	et	4a#X\	(et)	4cc#\	et	.	.
!LO:SIC:v:s=8F#\	!	!	!	!	!	!	!	!	!	!	!	!	!	!	!	!
8F\	.	.	.	.	.	.	8F#\J	.	.	.	.	.	.	.	.	.
!	!	!	!LO:SIC:v:s=16g#/LL	!	!	!	!	!	!	!	!	!	!	!	!	!
8E\J	.	.	16g/LL	.	16b\LL	.	8En\	in	8f#\	in	8a#\	in	8cc#\	in	.	.
.	.	.	16a#/JJ	.	16cc#\JJ	.	.	.	.	.	.	.	.	.	.	.
!	!	!	!	!	!LO:LB:g=original	!	!	!	!	!	!	!	!	!	!	!
=121	=121	=121	=121	=121	=121	=121	=121	=121	=121	=121	=121	=121	=121	=121	=121	=121
8D/L	6	.	8b\L	.	8dd\L	.	8D/	Sae-	8f#\	Se-	8b\	Se-	8dd\	Se-	2ryy	2ryy
!LO:SIC:v:s=8C#/J	!	!	!	!	!	!	!	!	!	!	!	!	!	!	!	!
8C/J	7	.	16b\L	.	8ee\J	.	8C#/	-cu-	8f#\	-cu-	16b\LL	-cu-	8ee\	-cu-	.	.
.	.	.	16a#X\JJ	.	.	.	.	.	.	.	16a#X\JJ	.	.	.	.	.
4BB/	6\	.	16b\LL	.	8ff#\L	.	4BB/	-la	4f#\	-la	4b\	-la	4dd\	-la	.	.
.	.	.	16dd\	.	.	.	.	.	.	.	.	.	.	.	.	.
.	.	.	16cc#\	.	16ee\L	.	.	.	.	.	.	.	.	.	.	.
.	.	.	16b\JJ	.	16dd\JJ	.	.	.	.	.	.	.	.	.	.	.
!	!	!	!	!	!	!	!	!	!	!	!LO:LB:g=original	!	!	!	!	!
=122	=122	=122	=122	=122	=122	=122	=122	=122	=122	=122	=122	=122	=122	=122	=122	=122
8r	.	.	4.a#X/	.	4.cc#\	.	8r	.	8r	.	8r	.	8r	.	2ryy	2ryy
*	*	*	*	*	*	*	*	*ij	*	*	*	*	*	*ij	*	*
8G\L	7_ 4_ #2r_	.	.	.	.	.	8G\L	(et)	4f#\	(et)	4a#X\	et	4cc#\	et	.	.
!LO:SIC:v:s=8F#\	!	!	!	!	!	!	!	!	!	!	!	!	!	!	!	!
8F\	.	.	.	.	.	.	8F#\J	.	.	.	.	.	.	.	.	.
!	!	!	!LO:SIC:v:s=16g#/LL	!	!	!	!	!	!	!	!	!	!	!	!	!
8E\J	.	.	16g/LL	.	16b\LL	.	8E\	in	8f#\	in	8a#\	in	8cc#\	in	.	.
.	.	.	16a#/JJ	.	16cc#\JJ	.	.	.	.	.	.	.	.	.	.	.
=123	=123	=123	=123	=123	=123	=123	=123	=123	=123	=123	=123	=123	=123	=123	=123	=123
8D/L	6	.	8b\L	.	8dd\L	.	8D/	Sae-	8f#\	Sae-	8b\	Sae-	8dd\	Se-	2ryy	2ryy
!LO:SIC:v:s=8C#/J	!	!	!	!	!	!	!	!	!	!	!	!	!LO:LB:g=original	!	!	!
8C/J	7	.	16b\L	.	8ee\J	.	8C#/	-cu-	8f#\	-cu-	16b\LL	-cu-	8ee\	-cu-	.	.
.	.	.	16a#X\JJ	.	.	.	.	.	.	.	16a#X\JJ	.	.	.	.	.
4BB/	6\	.	16b\LL	.	8ff#\L	.	4BB/	-la	4f#\	-la	4b\	-la	4dd\	-la	.	.
*	*	*	*	*	*	*	*	*Xij	*	*	*	*	*	*Xij	*	*
.	.	.	16dd\	.	.	.	.	.	.	.	.	.	.	.	.	.
.	.	.	16cc#\	.	16ee\L	.	.	.	.	.	.	.	.	.	.	.
.	.	.	16b\JJ	.	16dd\JJ	.	.	.	.	.	.	.	.	.	.	.
!	!	!	!	!	!	!	!	!	!LO:LB:g=original	!	!	!	!	!	!	!
=124	=124	=124	=124	=124	=124	=124	=124	=124	=124	=124	=124	=124	=124	=124	=124	=124
8r	.	.	8.a#X/L	.	16cc#\LL	.	8r	.	8r	.	8r	.	8r	.	2ryy	2ryy
.	.	.	.	.	16ff#\	.	.	.	.	.	.	.	.	.	.	.
!LO:SIC:v:s=8F#\L	!	!	!	!	!	!	!	!	!	!	!	!	!	!	!	!
8F\L	8 #	.	.	.	16gg\	.	8F#\L	Sae-	4c#\	Sae-	8a#X\L	Sae-	8ff#\L	Se-	.	.
!	!	!	!LO:SIC:v:s=32g#/LL	!	!	!	!	!	!	!	!	!	!	!	!	!
.	.	.	32g/LL	.	16ff#\JJ	.	.	.	.	.	.	.	.	.	.	.
.	.	.	32a#/JJJ	.	.	.	.	.	.	.	.	.	.	.	.	.
!LO:SIC:v:s=8G#\	!	!	!	!	!	!	!	!	!	!	!	!	!	!	!	!
8G\	6\ 3	.	8b\L	.	16ff#\LL	.	8G\J	.	.	.	8b\J	.	8ee#X\J	.	.	.
.	.	.	.	.	16ee#X\	.	.	.	.	.	.	.	.	.	.	.
8A#X\J	n5r 3	.	8cc#\J	.	16cc#\	.	8A#X\	-cu-	8f#\	-cu-	8cc#\	-cu-	8een\	-cu-	.	.
.	.	.	.	.	16een\JJ	.	.	.	.	.	.	.	.	.	.	.
=125	=125	=125	=125	=125	=125	=125	=125	=125	=125	=125	=125	=125	=125	=125	=125	=125
8B\L	4 3	.	8dd\L	.	16dd\LL	.	8B\L	-lo-	4f#\	-lo-	8.b\L	-lo-	8dd\L	-lo-	2ryy	2ryy
.	.	.	.	.	16ff#\	.	.	.	.	.	.	.	.	.	.	.
!LO:SIC:v:s=8c#\	!	!	!	!	!	!	!	!	!	!	!	!	!	!	!	!
8c\	6\ 3	.	8ee\	.	16bb\	.	8c#\J	.	.	.	.	.	8ee\J	.	.	.
.	.	.	.	.	16aa#X\JJ	.	.	.	.	.	16a#X\Jk	.	.	.	.	.
!	!	!	!	!	!	!	!LO:LB:g=original	!	!	!	!	!	!	!	!	!
8d\	6	.	8ff#\	.	16bb\LL	.	8d\L	-rum	4f#\	-rum	8b\	-rum	8ff#\	-rum	.	.
!	!	!	!	!	!LO:SIC:v:s=16aan\	!	!	!	!	!	!	!	!	!	!	!
.	.	.	.	.	16aa#\	.	.	.	.	.	.	.	.	.	.	.
8B\J	.	.	8dd\J	.	16gg\	.	8B\J	.	.	.	8b\	a-	8dd\	a-	.	.
.	.	.	.	.	16ff#\JJ	.	.	.	.	.	.	.	.	.	.	.
!	!	!	!LO:LB:g=original	!	!	!	!	!	!	!	!	!	!	!	!	!
=126	=126	=126	=126	=126	=126	=126	=126	=126	=126	=126	=126	=126	=126	=126	=126	=126
!LO:TX:t=P:problem=mixed beam	!	!	!	!	!	!	!	!	!	!	!	!	!	!	!	!
8E\L	6_	.	8.ee\L	.	8.gg\L	.	4E\	a-	4g\	a-	4cc#\	.	4ee\	-men	2ryy	2ryy
8E\	.	.	.	.	.	.	.	.	.	.	.	.	.	.	.	.
.	.	.	32dd\LL	.	32ff#\LL	.	.	.	.	.	.	.	.	.	.	.
.	.	.	32cc#X\JJJ	.	32ee\JJJ	.	.	.	.	.	.	.	.	.	.	.
!LO:SIC:v:s=8F#\	!	!	!	!	!	!	!	!	!	!	!	!	!	!	!	!
8F\	6 4	.	8b\L	.	8dd\L	.	4F#\	.	4f#\	.	8b\L	.	8dd\L	.	.	.
!LO:SIC:v:s=8FF#/J	!	!	!	!	!	!	!	!	!	!	!	!	!	!	!	!
8FF/J	5 #	.	8a#X\J	.	8cc#\J	.	.	.	.	.	8a#X\J	.	8cc#\J	.	.	.
=127	=127	=127	=127	=127	=127	=127	=127	=127	=127	=127	=127	=127	=127	=127	=127	=127
4BB/	.	.	4b\	.	8dd\L	.	4BB/	-men	4f#\	-men	4b\	-men	8dd\	.	2ryy	2ryy
.	.	.	.	.	8bb\	.	.	.	.	.	.	.	8bb\L	a-	.	.
4r	.	.	4r	.	8ff#\	.	4r	.	4r	.	4r	.	8ff#\	.	.	.
.	.	.	.	.	8gg\J	.	.	.	.	.	.	.	8gg\J	.	.	.
!	!	!	!	!	!LO:LB:g=original	!	!	!	!	!	!LO:LB:g=original	!	!LO:LB:g=original	!	!	!
=128	=128	=128	=128	=128	=128	=128	=128	=128	=128	=128	=128	=128	=128	=128	=128	=128
2r	.	.	8r	.	4.dd\	.	1r	.	2r	.	8r	.	4.dd\	.	2ryy	2ryy
.	.	.	8b/L	.	.	.	.	.	.	.	8b\L	a-	.	.	.	.
.	.	.	8f#/	.	.	.	.	.	.	.	8f#\	.	.	.	.	.
.	.	.	8g/J	.	8ee\	.	.	.	.	.	8g\J	.	8ee\	.	.	.
=129	=129	=129	=129	=129	=129	=129	=129	=129	=129	=129	=129	=129	=129	=129	=129	=129
*clefC4	*	*	*	*	*	*	*	*	*	*	*	*	*	*	*	*
8r	.	.	4.d/	.	8ff#\L	.	.	.	8r	.	4.d\	.	8ff#\L	.	2ryy	2r
8b\L	.	.	.	.	8dd\J	.	.	.	8b\L	a-	.	.	8dd\J	.	.	.
!LO:SIC:v:s=8f#\	!	!	!	!	!	!	!	!	!	!	!	!	!	!	!	!
8f\	6 4_	.	.	.	4b\	.	.	.	8f#\	.	.	.	4b\	-men	.	.
8g\J	6 _	.	8e/	.	.	.	.	.	8g\J	.	8e\	.	.	.	.	.
=130	=130	=130	=130	=130	=130	=130	=130	=130	=130	=130	=130	=130	=130	=130	=130	=130
8d\	6	.	8f#/L	.	4.bb\	.	8r	.	4.d\	.	8f#\L	.	4.bb\	a-	2ryy	2ryy
*clefF4	*	*	*	*	*	*	*	*	*	*	*	*	*	*	*	*
8B\	.	.	8d/J	.	.	.	8B\L	a-	.	.	8d\J	.	.	.	.	.
!LO:SIC:v:s=8F#\L	!	!	!	!	!	!	!	!	!	!	!	!	!	!	!	!
8F\L	6 4_	.	[y4b\	.	.	.	8F#\	.	.	.	4b\	.	.	.	.	.
8G\J	6 _	.	.	.	8gg\	.	8G\J	.	8e\	.	.	.	8gg\	.	.	.
!LO:PB:g=original	!	!	!	!	!	!	!	!	!	!	!	!	!	!	!	!
=131	=131	=131	=131	=131	=131	=131	=131	=131	=131	=131	=131	=131	=131	=131	=131	=131
!LO:TX:t=P:problem=mixed beam	!	!	!LO:N:xstem:cue	!	!	!	!	!	!	!	!	!	!	!	!	!
8D\L	6	.	8b\]	.	16ff#\LL	.	8D\L	.	8f#\L	.	8b\L	.	8ff#\L	.	2ryy	2ryy
.	.	.	.	.	16bb\	.	.	.	.	.	.	.	.	.	.	.
8E\	6	.	8cc#\L	.	16gg\	.	8E\J	.	8g\J	.	8cc#\	.	8ee\	.	.	.
.	.	.	.	.	16ee\JJ	.	.	.	.	.	.	.	.	.	.	.
!LO:SIC:v:s=8F#\	!	!	!	!	!	!	!	!	!	!	!	!	!	!	!	!
8F\	4	.	8b\	.	8dd\L	.	4F#\	.	4f#\	.	8b\	.	8dd\	.	.	.
!LO:SIC:v:s=8FF#/J	!	!	!	!	!	!	!	!	!	!	!	!	!	!	!	!
8FF/J	#	.	8a#X\J	.	8cc#\J	.	.	.	.	.	8a#X\J	.	8cc#\J	.	.	.
!	!	!	!	!	!	!	!	!	!LO:LB:g=original	!	!	!	!	!	!	!
=132	=132	=132	=132	=132	=132	=132	=132	=132	=132	=132	=132	=132	=132	=132	=132	=132
8D\L	.	.	8b\L	.	8dd\	.	8B\	-men	8f#\	-men	8b\	-men	4dd\	-men	2ryy	2ryy
8G\	.	.	8dd\J	.	4bb\	.	8G\	a-	4g\	a-	4b\	a-	.	.	.	.
8E\	6 5	.	8.cc#\L	.	.	.	8E\	.	.	.	.	.	4cc#\	a-	.	.
!LO:SIC:v:s=8F#\J	!	!	!	!	!	!	!	!	!	!	!	!	!	!	!	!
8F\J	#	.	.	.	8aa#X\	.	8F#\	.	8f#\	.	8a#X\	.	.	.	.	.
.	.	.	32b\LL	.	.	.	.	.	.	.	.	.	.	.	.	.
.	.	.	32cc#\JJJ	.	.	.	.	.	.	.	.	.	.	.	.	.
=133	=133	=133	=133	=133	=133	=133	=133	=133	=133	=133	=133	=133	=133	=133	=133	=133
4BB/	.	.	4dd\	.	4bb\	.	4BB/	-men	4f#\	-men	4b\	-men	4dd\	-men	2ryy	2ryy
!	!	!	!	!	!	!	!	!	!	!	!	!	!LO:TX:b:i:t=Verte Subitto	!	!	!
4r	.	.	4r	.	4r	.	4r	.	4r	.	4r	.	4r	.	.	.
==	==	==	==	==	==	==	==	==	==	==	==	==	==	==	==	==
*-	*-	*-	*-	*-	*-	*-	*-	*-	*-	*-	*-	*-	*-	*-	*-	*-
!!!system-decoration: [(g1)][(g2)][(g3)]<s9>
!!!RDF**dynam: p = pia
!!!ENC: Filip Voros
!!!END: 2021-11-28
!!!ENC: Andrzej Kubiczek
!!!END: 2021-12-10
